public/luts/infrared-magenta.cube
# Simulated infrared: green colors become red/magenta
TITLE "Infrared Magenta"
LUT_3D_SIZE 9
DOMAIN_MIN 0.0 0.0 0.0
DOMAIN_MAX 1.0 1.0 1.0
0.000000 0.000000 0.000000
0.125000 0.000000 0.000000
0.250000 0.000000 0.000000
0.375000 0.000000 0.000000
0.500000 0.000000 0.000000
0.625000 0.000000 0.000000
0.750000 0.000000 0.000000
0.875000 0.000000 0.000000
1.000000 0.000000 0.000000
0.150000 0.018750 0.056250
0.150000 0.018750 0.056250
0.250000 0.125000 0.000000
0.375000 0.125000 0.000000
0.500000 0.125000 0.000000
0.625000 0.125000 0.000000
0.750000 0.125000 0.000000
0.875000 0.125000 0.000000
1.000000 0.125000 0.000000
0.300000 0.037500 0.112500
0.300000 0.037500 0.112500
0.300000 0.037500 0.112500
0.375000 0.250000 0.000000
0.500000 0.250000 0.000000
0.625000 0.250000 0.000000
0.750000 0.250000 0.000000
0.875000 0.250000 0.000000
1.000000 0.250000 0.000000
0.450000 0.056250 0.168750
0.450000 0.056250 0.168750
0.450000 0.056250 0.168750
0.450000 0.056250 0.168750
0.500000 0.375000 0.000000
0.625000 0.375000 0.000000
0.750000 0.375000 0.000000
0.875000 0.375000 0.000000
1.000000 0.375000 0.000000
0.600000 0.075000 0.225000
0.600000 0.075000 0.225000
0.600000 0.075000 0.225000
0.600000 0.075000 0.225000
0.600000 0.075000 0.225000
0.625000 0.500000 0.000000
0.750000 0.500000 0.000000
0.875000 0.500000 0.000000
1.000000 0.500000 0.000000
0.750000 0.093750 0.281250
0.750000 0.093750 0.281250
0.750000 0.093750 0.281250
0.750000 0.093750 0.281250
0.750000 0.093750 0.281250
0.750000 0.093750 0.281250
0.750000 0.625000 0.000000
0.875000 0.625000 0.000000
1.000000 0.625000 0.000000
0.900000 0.112500 0.337500
0.900000 0.112500 0.337500
0.900000 0.112500 0.337500
0.900000 0.112500 0.337500
0.900000 0.112500 0.337500
0.900000 0.112500 0.337500
0.900000 0.112500 0.337500
1.000000 0.131250 0.393750
1.000000 0.750000 0.000000
1.000000 0.131250 0.393750
1.000000 0.131250 0.393750
1.000000 0.131250 0.393750
1.000000 0.131250 0.393750
1.000000 0.131250 0.393750
1.000000 0.131250 0.393750
1.000000 0.131250 0.393750
1.000000 0.131250 0.393750
1.000000 0.150000 0.450000
1.000000 0.150000 0.450000
1.000000 0.150000 0.450000
1.000000 0.150000 0.450000
1.000000 0.150000 0.450000
1.000000 0.150000 0.450000
1.000000 0.150000 0.450000
1.000000 0.150000 0.450000
1.000000 0.150000 0.450000
1.000000 0.150000 0.450000
0.000000 0.000000 0.125000
0.125000 0.000000 0.125000
0.250000 0.000000 0.125000
0.375000 0.000000 0.125000
0.500000 0.000000 0.125000
0.625000 0.000000 0.125000
0.750000 0.000000 0.125000
0.875000 0.000000 0.125000
1.000000 0.000000 0.125000
0.150000 0.018750 0.056250
0.125000 0.125000 0.125000
0.250000 0.125000 0.125000
0.375000 0.125000 0.125000
0.500000 0.125000 0.125000
0.625000 0.125000 0.125000
0.750000 0.125000 0.125000
0.875000 0.125000 0.125000
1.000000 0.125000 0.125000
0.300000 0.037500 0.112500
0.300000 0.037500 0.112500
0.300000 0.037500 0.112500
0.375000 0.250000 0.125000
0.500000 0.250000 0.125000
0.625000 0.250000 0.125000
0.750000 0.250000 0.125000
0.875000 0.250000 0.125000
1.000000 0.250000 0.125000
0.450000 0.056250 0.168750
0.450000 0.056250 0.168750
0.450000 0.056250 0.168750
0.450000 0.056250 0.168750
0.500000 0.375000 0.125000
0.625000 0.375000 0.125000
0.750000 0.375000 0.125000
0.875000 0.375000 0.125000
1.000000 0.375000 0.125000
0.600000 0.075000 0.225000
0.600000 0.075000 0.225000
0.600000 0.075000 0.225000
0.600000 0.075000 0.225000
0.600000 0.075000 0.225000
0.625000 0.500000 0.125000
0.750000 0.500000 0.125000
0.875000 0.500000 0.125000
1.000000 0.500000 0.125000
0.750000 0.093750 0.281250
0.750000 0.093750 0.281250
0.750000 0.093750 0.281250
0.750000 0.093750 0.281250
0.750000 0.093750 0.281250
0.750000 0.093750 0.281250
0.750000 0.625000 0.125000
0.875000 0.625000 0.125000
1.000000 0.625000 0.125000
0.900000 0.112500 0.337500
0.900000 0.112500 0.337500
0.900000 0.112500 0.337500
0.900000 0.112500 0.337500
0.900000 0.112500 0.337500
0.900000 0.112500 0.337500
0.900000 0.112500 0.337500
0.875000 0.750000 0.125000
1.000000 0.750000 0.125000
1.000000 0.131250 0.393750
1.000000 0.131250 0.393750
1.000000 0.131250 0.393750
1.000000 0.131250 0.393750
1.000000 0.131250 0.393750
1.000000 0.131250 0.393750
1.000000 0.131250 0.393750
1.000000 0.131250 0.393750
1.000000 0.150000 0.450000
1.000000 0.150000 0.450000
1.000000 0.150000 0.450000
1.000000 0.150000 0.450000
1.000000 0.150000 0.450000
1.000000 0.150000 0.450000
1.000000 0.150000 0.450000
1.000000 0.150000 0.450000
1.000000 0.150000 0.450000
1.000000 0.150000 0.450000
0.000000 0.000000 0.250000
0.125000 0.000000 0.250000
0.250000 0.000000 0.250000
0.375000 0.000000 0.250000
0.500000 0.000000 0.250000
0.625000 0.000000 0.250000
0.750000 0.000000 0.250000
0.875000 0.000000 0.250000
1.000000 0.000000 0.250000
0.000000 0.125000 0.250000
0.125000 0.125000 0.250000
0.250000 0.125000 0.250000
0.375000 0.125000 0.250000
0.500000 0.125000 0.250000
0.625000 0.125000 0.250000
0.750000 0.125000 0.250000
0.875000 0.125000 0.250000
1.000000 0.125000 0.250000
0.300000 0.037500 0.112500
0.300000 0.037500 0.112500
0.250000 0.250000 0.250000
0.375000 0.250000 0.250000
0.500000 0.250000 0.250000
0.625000 0.250000 0.250000
0.750000 0.250000 0.250000
0.875000 0.250000 0.250000
1.000000 0.250000 0.250000
0.450000 0.056250 0.168750
0.450000 0.056250 0.168750
0.450000 0.056250 0.168750
0.450000 0.056250 0.168750
0.500000 0.375000 0.250000
0.625000 0.375000 0.250000
0.750000 0.375000 0.250000
0.875000 0.375000 0.250000
1.000000 0.375000 0.250000
0.600000 0.075000 0.225000
0.600000 0.075000 0.225000
0.600000 0.075000 0.225000
0.600000 0.075000 0.225000
0.600000 0.075000 0.225000
0.625000 0.500000 0.250000
0.750000 0.500000 0.250000
0.875000 0.500000 0.250000
1.000000 0.500000 0.250000
0.750000 0.093750 0.281250
0.750000 0.093750 0.281250
0.750000 0.093750 0.281250
0.750000 0.093750 0.281250
0.750000 0.093750 0.281250
0.750000 0.093750 0.281250
0.750000 0.625000 0.250000
0.875000 0.625000 0.250000
1.000000 0.625000 0.250000
0.900000 0.112500 0.337500
0.900000 0.112500 0.337500
0.900000 0.112500 0.337500
0.900000 0.112500 0.337500
0.900000 0.112500 0.337500
0.900000 0.112500 0.337500
0.900000 0.112500 0.337500
0.875000 0.750000 0.250000
1.000000 0.750000 0.250000
1.000000 0.131250 0.393750
1.000000 0.131250 0.393750
1.000000 0.131250 0.393750
1.000000 0.131250 0.393750
1.000000 0.131250 0.393750
1.000000 0.131250 0.393750
1.000000 0.131250 0.393750
1.000000 0.131250 0.393750
1.000000 0.875000 0.250000
1.000000 0.150000 0.450000
1.000000 0.150000 0.450000
1.000000 0.150000 0.450000
1.000000 0.150000 0.450000
1.000000 0.150000 0.450000
1.000000 0.150000 0.450000
1.000000 0.150000 0.450000
1.000000 0.150000 0.450000
1.000000 0.150000 0.450000
0.000000 0.000000 0.375000
0.125000 0.000000 0.375000
0.250000 0.000000 0.375000
0.375000 0.000000 0.375000
0.500000 0.000000 0.375000
0.625000 0.000000 0.375000
0.750000 0.000000 0.375000
0.875000 0.000000 0.375000
1.000000 0.000000 0.375000
0.000000 0.125000 0.375000
0.125000 0.125000 0.375000
0.250000 0.125000 0.375000
0.375000 0.125000 0.375000
0.500000 0.125000 0.375000
0.625000 0.125000 0.375000
0.750000 0.125000 0.375000
0.875000 0.125000 0.375000
1.000000 0.125000 0.375000
0.000000 0.250000 0.375000
0.125000 0.250000 0.375000
0.250000 0.250000 0.375000
0.375000 0.250000 0.375000
0.500000 0.250000 0.375000
0.625000 0.250000 0.375000
0.750000 0.250000 0.375000
0.875000 0.250000 0.375000
1.000000 0.250000 0.375000
0.450000 0.056250 0.168750
0.450000 0.056250 0.168750
0.450000 0.056250 0.168750
0.375000 0.375000 0.375000
0.500000 0.375000 0.375000
0.625000 0.375000 0.375000
0.750000 0.375000 0.375000
0.875000 0.375000 0.375000
1.000000 0.375000 0.375000
0.600000 0.075000 0.225000
0.600000 0.075000 0.225000
0.600000 0.075000 0.225000
0.600000 0.075000 0.225000
0.600000 0.075000 0.225000
0.625000 0.500000 0.375000
0.750000 0.500000 0.375000
0.875000 0.500000 0.375000
1.000000 0.500000 0.375000
0.750000 0.093750 0.281250
0.750000 0.093750 0.281250
0.750000 0.093750 0.281250
0.750000 0.093750 0.281250
0.750000 0.093750 0.281250
0.750000 0.093750 0.281250
0.750000 0.625000 0.375000
0.875000 0.625000 0.375000
1.000000 0.625000 0.375000
0.900000 0.112500 0.337500
0.900000 0.112500 0.337500
0.900000 0.112500 0.337500
0.900000 0.112500 0.337500
0.900000 0.112500 0.337500
0.900000 0.112500 0.337500
0.900000 0.112500 0.337500
0.875000 0.750000 0.375000
1.000000 0.750000 0.375000
1.000000 0.131250 0.393750
1.000000 0.131250 0.393750
1.000000 0.131250 0.393750
1.000000 0.131250 0.393750
1.000000 0.131250 0.393750
1.000000 0.131250 0.393750
1.000000 0.131250 0.393750
1.000000 0.131250 0.393750
1.000000 0.875000 0.375000
1.000000 0.150000 0.450000
1.000000 0.150000 0.450000
1.000000 0.150000 0.450000
1.000000 0.150000 0.450000
1.000000 0.150000 0.450000
1.000000 0.150000 0.450000
1.000000 0.150000 0.450000
1.000000 0.150000 0.450000
1.000000 0.150000 0.450000
0.000000 0.000000 0.500000
0.125000 0.000000 0.500000
0.250000 0.000000 0.500000
0.375000 0.000000 0.500000
0.500000 0.000000 0.500000
0.625000 0.000000 0.500000
0.750000 0.000000 0.500000
0.875000 0.000000 0.500000
1.000000 0.000000 0.500000
0.000000 0.125000 0.500000
0.125000 0.125000 0.500000
0.250000 0.125000 0.500000
0.375000 0.125000 0.500000
0.500000 0.125000 0.500000
0.625000 0.125000 0.500000
0.750000 0.125000 0.500000
0.875000 0.125000 0.500000
1.000000 0.125000 0.500000
0.000000 0.250000 0.500000
0.125000 0.250000 0.500000
0.250000 0.250000 0.500000
0.375000 0.250000 0.500000
0.500000 0.250000 0.500000
0.625000 0.250000 0.500000
0.750000 0.250000 0.500000
0.875000 0.250000 0.500000
1.000000 0.250000 0.500000
0.000000 0.375000 0.500000
0.125000 0.375000 0.500000
0.250000 0.375000 0.500000
0.375000 0.375000 0.500000
0.500000 0.375000 0.500000
0.625000 0.375000 0.500000
0.750000 0.375000 0.500000
0.875000 0.375000 0.500000
1.000000 0.375000 0.500000
0.600000 0.075000 0.225000
0.600000 0.075000 0.225000
0.600000 0.075000 0.225000
0.600000 0.075000 0.225000
0.500000 0.500000 0.500000
0.625000 0.500000 0.500000
0.750000 0.500000 0.500000
0.875000 0.500000 0.500000
1.000000 0.500000 0.500000
0.750000 0.093750 0.281250
0.750000 0.093750 0.281250
0.750000 0.093750 0.281250
0.750000 0.093750 0.281250
0.750000 0.093750 0.281250
0.750000 0.093750 0.281250
0.750000 0.625000 0.500000
0.875000 0.625000 0.500000
1.000000 0.625000 0.500000
0.900000 0.112500 0.337500
0.900000 0.112500 0.337500
0.900000 0.112500 0.337500
0.900000 0.112500 0.337500
0.900000 0.112500 0.337500
0.900000 0.112500 0.337500
0.900000 0.112500 0.337500
0.875000 0.750000 0.500000
1.000000 0.750000 0.500000
1.000000 0.131250 0.393750
1.000000 0.131250 0.393750
1.000000 0.131250 0.393750
1.000000 0.131250 0.393750
1.000000 0.131250 0.393750
1.000000 0.131250 0.393750
1.000000 0.131250 0.393750
1.000000 0.131250 0.393750
1.000000 0.875000 0.500000
1.000000 0.150000 0.450000
1.000000 0.150000 0.450000
1.000000 0.150000 0.450000
1.000000 0.150000 0.450000
1.000000 0.150000 0.450000
1.000000 0.150000 0.450000
1.000000 0.150000 0.450000
1.000000 0.150000 0.450000
1.000000 0.150000 0.450000
0.000000 0.000000 0.625000
0.125000 0.000000 0.625000
0.250000 0.000000 0.625000
0.375000 0.000000 0.625000
0.500000 0.000000 0.625000
0.625000 0.000000 0.625000
0.750000 0.000000 0.625000
0.875000 0.000000 0.625000
1.000000 0.000000 0.625000
0.000000 0.125000 0.625000
0.125000 0.125000 0.625000
0.250000 0.125000 0.625000
0.375000 0.125000 0.625000
0.500000 0.125000 0.625000
0.625000 0.125000 0.625000
0.750000 0.125000 0.625000
0.875000 0.125000 0.625000
1.000000 0.125000 0.625000
0.000000 0.250000 0.625000
0.125000 0.250000 0.625000
0.250000 0.250000 0.625000
0.375000 0.250000 0.625000
0.500000 0.250000 0.625000
0.625000 0.250000 0.625000
0.750000 0.250000 0.625000
0.875000 0.250000 0.625000
1.000000 0.250000 0.625000
0.000000 0.375000 0.625000
0.125000 0.375000 0.625000
0.250000 0.375000 0.625000
0.375000 0.375000 0.625000
0.500000 0.375000 0.625000
0.625000 0.375000 0.625000
0.750000 0.375000 0.625000
0.875000 0.375000 0.625000
1.000000 0.375000 0.625000
0.000000 0.500000 0.625000
0.125000 0.500000 0.625000
0.250000 0.500000 0.625000
0.375000 0.500000 0.625000
0.500000 0.500000 0.625000
0.625000 0.500000 0.625000
0.750000 0.500000 0.625000
0.875000 0.500000 0.625000
1.000000 0.500000 0.625000
0.750000 0.093750 0.281250
0.750000 0.093750 0.281250
0.750000 0.093750 0.281250
0.750000 0.093750 0.281250
0.750000 0.093750 0.281250
0.625000 0.625000 0.625000
0.750000 0.625000 0.625000
0.875000 0.625000 0.625000
1.000000 0.625000 0.625000
0.900000 0.112500 0.337500
0.900000 0.112500 0.337500
0.900000 0.112500 0.337500
0.900000 0.112500 0.337500
0.900000 0.112500 0.337500
0.900000 0.112500 0.337500
0.900000 0.112500 0.337500
0.875000 0.750000 0.625000
1.000000 0.750000 0.625000
1.000000 0.131250 0.393750
1.000000 0.131250 0.393750
1.000000 0.131250 0.393750
1.000000 0.131250 0.393750
1.000000 0.131250 0.393750
1.000000 0.131250 0.393750
1.000000 0.131250 0.393750
1.000000 0.131250 0.393750
1.000000 0.875000 0.625000
1.000000 0.150000 0.450000
1.000000 0.150000 0.450000
1.000000 0.150000 0.450000
1.000000 0.150000 0.450000
1.000000 0.150000 0.450000
1.000000 0.150000 0.450000
1.000000 0.150000 0.450000
1.000000 0.150000 0.450000
1.000000 0.150000 0.450000
0.000000 0.000000 0.750000
0.125000 0.000000 0.750000
0.250000 0.000000 0.750000
0.375000 0.000000 0.750000
0.500000 0.000000 0.750000
0.625000 0.000000 0.750000
0.750000 0.000000 0.750000
0.875000 0.000000 0.750000
1.000000 0.000000 0.750000
0.000000 0.125000 0.750000
0.125000 0.125000 0.750000
0.250000 0.125000 0.750000
0.375000 0.125000 0.750000
0.500000 0.125000 0.750000
0.625000 0.125000 0.750000
0.750000 0.125000 0.750000
0.875000 0.125000 0.750000
1.000000 0.125000 0.750000
0.000000 0.250000 0.750000
0.125000 0.250000 0.750000
0.250000 0.250000 0.750000
0.375000 0.250000 0.750000
0.500000 0.250000 0.750000
0.625000 0.250000 0.750000
0.750000 0.250000 0.750000
0.875000 0.250000 0.750000
1.000000 0.250000 0.750000
0.000000 0.375000 0.750000
0.125000 0.375000 0.750000
0.250000 0.375000 0.750000
0.375000 0.375000 0.750000
0.500000 0.375000 0.750000
0.625000 0.375000 0.750000
0.750000 0.375000 0.750000
0.875000 0.375000 0.750000
1.000000 0.375000 0.750000
0.000000 0.500000 0.750000
0.125000 0.500000 0.750000
0.250000 0.500000 0.750000
0.375000 0.500000 0.750000
0.500000 0.500000 0.750000
0.625000 0.500000 0.750000
0.750000 0.500000 0.750000
0.875000 0.500000 0.750000
1.000000 0.500000 0.750000
0.000000 0.625000 0.750000
0.125000 0.625000 0.750000
0.250000 0.625000 0.750000
0.375000 0.625000 0.750000
0.500000 0.625000 0.750000
0.625000 0.625000 0.750000
0.750000 0.625000 0.750000
0.875000 0.625000 0.750000
1.000000 0.625000 0.750000
0.900000 0.112500 0.337500
0.900000 0.112500 0.337500
0.900000 0.112500 0.337500
0.900000 0.112500 0.337500
0.900000 0.112500 0.337500
0.900000 0.112500 0.337500
0.750000 0.750000 0.750000
0.875000 0.750000 0.750000
1.000000 0.750000 0.750000
1.000000 0.131250 0.393750
1.000000 0.131250 0.393750
1.000000 0.131250 0.393750
1.000000 0.131250 0.393750
1.000000 0.131250 0.393750
1.000000 0.131250 0.393750
1.000000 0.131250 0.393750
1.000000 0.131250 0.393750
1.000000 0.875000 0.750000
1.000000 0.150000 0.450000
1.000000 0.150000 0.450000
1.000000 0.150000 0.450000
1.000000 0.150000 0.450000
1.000000 0.150000 0.450000
1.000000 0.150000 0.450000
1.000000 0.150000 0.450000
1.000000 0.150000 0.450000
1.000000 0.150000 0.450000
0.000000 0.000000 0.875000
0.125000 0.000000 0.875000
0.250000 0.000000 0.875000
0.375000 0.000000 0.875000
0.500000 0.000000 0.875000
0.625000 0.000000 0.875000
0.750000 0.000000 0.875000
0.875000 0.000000 0.875000
1.000000 0.000000 0.875000
0.000000 0.125000 0.875000
0.125000 0.125000 0.875000
0.250000 0.125000 0.875000
0.375000 0.125000 0.875000
0.500000 0.125000 0.875000
0.625000 0.125000 0.875000
0.750000 0.125000 0.875000
0.875000 0.125000 0.875000
1.000000 0.125000 0.875000
0.000000 0.250000 0.875000
0.125000 0.250000 0.875000
0.250000 0.250000 0.875000
0.375000 0.250000 0.875000
0.500000 0.250000 0.875000
0.625000 0.250000 0.875000
0.750000 0.250000 0.875000
0.875000 0.250000 0.875000
1.000000 0.250000 0.875000
0.000000 0.375000 0.875000
0.125000 0.375000 0.875000
0.250000 0.375000 0.875000
0.375000 0.375000 0.875000
0.500000 0.375000 0.875000
0.625000 0.375000 0.875000
0.750000 0.375000 0.875000
0.875000 0.375000 0.875000
1.000000 0.375000 0.875000
0.000000 0.500000 0.875000
0.125000 0.500000 0.875000
0.250000 0.500000 0.875000
0.375000 0.500000 0.875000
0.500000 0.500000 0.875000
0.625000 0.500000 0.875000
0.750000 0.500000 0.875000
0.875000 0.500000 0.875000
1.000000 0.500000 0.875000
0.000000 0.625000 0.875000
0.125000 0.625000 0.875000
0.250000 0.625000 0.875000
0.375000 0.625000 0.875000
0.500000 0.625000 0.875000
0.625000 0.625000 0.875000
0.750000 0.625000 0.875000
0.875000 0.625000 0.875000
1.000000 0.625000 0.875000
0.000000 0.750000 0.875000
0.125000 0.750000 0.875000
0.250000 0.750000 0.875000
0.375000 0.750000 0.875000
0.500000 0.750000 0.875000
0.625000 0.750000 0.875000
0.750000 0.750000 0.875000
0.875000 0.750000 0.875000
1.000000 0.750000 0.875000
1.000000 0.131250 0.393750
1.000000 0.131250 0.393750
1.000000 0.131250 0.393750
1.000000 0.131250 0.393750
1.000000 0.131250 0.393750
1.000000 0.131250 0.393750
1.000000 0.131250 0.393750
0.875000 0.875000 0.875000
1.000000 0.875000 0.875000
1.000000 0.150000 0.450000
1.000000 0.150000 0.450000
1.000000 0.150000 0.450000
1.000000 0.150000 0.450000
1.000000 0.150000 0.450000
1.000000 0.150000 0.450000
1.000000 0.150000 0.450000
1.000000 0.150000 0.450000
1.000000 0.150000 0.450000
0.000000 0.000000 1.000000
0.125000 0.000000 1.000000
0.250000 0.000000 1.000000
0.375000 0.000000 1.000000
0.500000 0.000000 1.000000
0.625000 0.000000 1.000000
0.750000 0.000000 1.000000
0.875000 0.000000 1.000000
1.000000 0.000000 1.000000
0.000000 0.125000 1.000000
0.125000 0.125000 1.000000
0.250000 0.125000 1.000000
0.375000 0.125000 1.000000
0.500000 0.125000 1.000000
0.625000 0.125000 1.000000
0.750000 0.125000 1.000000
0.875000 0.125000 1.000000
1.000000 0.125000 1.000000
0.000000 0.250000 1.000000
0.125000 0.250000 1.000000
0.250000 0.250000 1.000000
0.375000 0.250000 1.000000
0.500000 0.250000 1.000000
0.625000 0.250000 1.000000
0.750000 0.250000 1.000000
0.875000 0.250000 1.000000
1.000000 0.250000 1.000000
0.000000 0.375000 1.000000
0.125000 0.375000 1.000000
0.250000 0.375000 1.000000
0.375000 0.375000 1.000000
0.500000 0.375000 1.000000
0.625000 0.375000 1.000000
0.750000 0.375000 1.000000
0.875000 0.375000 1.000000
1.000000 0.375000 1.000000
0.000000 0.500000 1.000000
0.125000 0.500000 1.000000
0.250000 0.500000 1.000000
0.375000 0.500000 1.000000
0.500000 0.500000 1.000000
0.625000 0.500000 1.000000
0.750000 0.500000 1.000000
0.875000 0.500000 1.000000
1.000000 0.500000 1.000000
0.000000 0.625000 1.000000
0.125000 0.625000 1.000000
0.250000 0.625000 1.000000
0.375000 0.625000 1.000000
0.500000 0.625000 1.000000
0.625000 0.625000 1.000000
0.750000 0.625000 1.000000
0.875000 0.625000 1.000000
1.000000 0.625000 1.000000
0.000000 0.750000 1.000000
0.125000 0.750000 1.000000
0.250000 0.750000 1.000000
0.375000 0.750000 1.000000
0.500000 0.750000 1.000000
0.625000 0.750000 1.000000
0.750000 0.750000 1.000000
0.875000 0.750000 1.000000
1.000000 0.750000 1.000000
0.000000 0.875000 1.000000
0.125000 0.875000 1.000000
0.250000 0.875000 1.000000
0.375000 0.875000 1.000000
0.500000 0.875000 1.000000
0.625000 0.875000 1.000000
0.750000 0.875000 1.000000
0.875000 0.875000 1.000000
1.000000 0.875000 1.000000
1.000000 0.150000 0.450000
1.000000 0.150000 0.450000
1.000000 0.150000 0.450000
1.000000 0.150000 0.450000
1.000000 0.150000 0.450000
1.000000 0.150000 0.450000
1.000000 0.150000 0.450000
1.000000 0.150000 0.450000
1.000000 1.000000 1.000000
