public/luts/infrared-magenta.cube
# Simulated infrared: green colors become red/magenta
TITLE "Infrared Magenta"
LUT_3D_SIZE 33
DOMAIN_MIN 0.0 0.0 0.0
DOMAIN_MAX 1.0 1.0 1.0
0.000000 0.000000 0.000000
0.031250 0.000000 0.000000
0.062500 0.000000 0.000000
0.093750 0.000000 0.000000
0.125000 0.000000 0.000000
0.156250 0.000000 0.000000
0.187500 0.000000 0.000000
0.218750 0.000000 0.000000
0.250000 0.000000 0.000000
0.281250 0.000000 0.000000
0.312500 0.000000 0.000000
0.343750 0.000000 0.000000
0.375000 0.000000 0.000000
0.406250 0.000000 0.000000
0.437500 0.000000 0.000000
0.468750 0.000000 0.000000
0.500000 0.000000 0.000000
0.531250 0.000000 0.000000
0.562500 0.000000 0.000000
0.593750 0.000000 0.000000
0.625000 0.000000 0.000000
0.656250 0.000000 0.000000
0.687500 0.000000 0.000000
0.718750 0.000000 0.000000
0.750000 0.000000 0.000000
0.781250 0.000000 0.000000
0.812500 0.000000 0.000000
0.843750 0.000000 0.000000
0.875000 0.000000 0.000000
0.906250 0.000000 0.000000
0.937500 0.000000 0.000000
0.968750 0.000000 0.000000
1.000000 0.000000 0.000000
0.037500 0.004687 0.014063
0.037500 0.004687 0.014063
0.062500 0.031250 0.000000
0.093750 0.031250 0.000000
0.125000 0.031250 0.000000
0.156250 0.031250 0.000000
0.187500 0.031250 0.000000
0.218750 0.031250 0.000000
0.250000 0.031250 0.000000
0.281250 0.031250 0.000000
0.312500 0.031250 0.000000
0.343750 0.031250 0.000000
0.375000 0.031250 0.000000
0.406250 0.031250 0.000000
0.437500 0.031250 0.000000
0.468750 0.031250 0.000000
0.500000 0.031250 0.000000
0.531250 0.031250 0.000000
0.562500 0.031250 0.000000
0.593750 0.031250 0.000000
0.625000 0.031250 0.000000
0.656250 0.031250 0.000000
0.687500 0.031250 0.000000
0.718750 0.031250 0.000000
0.750000 0.031250 0.000000
0.781250 0.031250 0.000000
0.812500 0.031250 0.000000
0.843750 0.031250 0.000000
0.875000 0.031250 0.000000
0.906250 0.031250 0.000000
0.937500 0.031250 0.000000
0.968750 0.031250 0.000000
1.000000 0.031250 0.000000
0.075000 0.009375 0.028125
0.075000 0.009375 0.028125
0.075000 0.009375 0.028125
0.093750 0.062500 0.000000
0.125000 0.062500 0.000000
0.156250 0.062500 0.000000
0.187500 0.062500 0.000000
0.218750 0.062500 0.000000
0.250000 0.062500 0.000000
0.281250 0.062500 0.000000
0.312500 0.062500 0.000000
0.343750 0.062500 0.000000
0.375000 0.062500 0.000000
0.406250 0.062500 0.000000
0.437500 0.062500 0.000000
0.468750 0.062500 0.000000
0.500000 0.062500 0.000000
0.531250 0.062500 0.000000
0.562500 0.062500 0.000000
0.593750 0.062500 0.000000
0.625000 0.062500 0.000000
0.656250 0.062500 0.000000
0.687500 0.062500 0.000000
0.718750 0.062500 0.000000
0.750000 0.062500 0.000000
0.781250 0.062500 0.000000
0.812500 0.062500 0.000000
0.843750 0.062500 0.000000
0.875000 0.062500 0.000000
0.906250 0.062500 0.000000
0.937500 0.062500 0.000000
0.968750 0.062500 0.000000
1.000000 0.062500 0.000000
0.112500 0.014062 0.042188
0.112500 0.014062 0.042188
0.112500 0.014062 0.042188
0.112500 0.014062 0.042188
0.125000 0.093750 0.000000
0.156250 0.093750 0.000000
0.187500 0.093750 0.000000
0.218750 0.093750 0.000000
0.250000 0.093750 0.000000
0.281250 0.093750 0.000000
0.312500 0.093750 0.000000
0.343750 0.093750 0.000000
0.375000 0.093750 0.000000
0.406250 0.093750 0.000000
0.437500 0.093750 0.000000
0.468750 0.093750 0.000000
0.500000 0.093750 0.000000
0.531250 0.093750 0.000000
0.562500 0.093750 0.000000
0.593750 0.093750 0.000000
0.625000 0.093750 0.000000
0.656250 0.093750 0.000000
0.687500 0.093750 0.000000
0.718750 0.093750 0.000000
0.750000 0.093750 0.000000
0.781250 0.093750 0.000000
0.812500 0.093750 0.000000
0.843750 0.093750 0.000000
0.875000 0.093750 0.000000
0.906250 0.093750 0.000000
0.937500 0.093750 0.000000
0.968750 0.093750 0.000000
1.000000 0.093750 0.000000
0.150000 0.018750 0.056250
0.150000 0.018750 0.056250
0.150000 0.018750 0.056250
0.150000 0.018750 0.056250
0.150000 0.018750 0.056250
0.156250 0.125000 0.000000
0.187500 0.125000 0.000000
0.218750 0.125000 0.000000
0.250000 0.125000 0.000000
0.281250 0.125000 0.000000
0.312500 0.125000 0.000000
0.343750 0.125000 0.000000
0.375000 0.125000 0.000000
0.406250 0.125000 0.000000
0.437500 0.125000 0.000000
0.468750 0.125000 0.000000
0.500000 0.125000 0.000000
0.531250 0.125000 0.000000
0.562500 0.125000 0.000000
0.593750 0.125000 0.000000
0.625000 0.125000 0.000000
0.656250 0.125000 0.000000
0.687500 0.125000 0.000000
0.718750 0.125000 0.000000
0.750000 0.125000 0.000000
0.781250 0.125000 0.000000
0.812500 0.125000 0.000000
0.843750 0.125000 0.000000
0.875000 0.125000 0.000000
0.906250 0.125000 0.000000
0.937500 0.125000 0.000000
0.968750 0.125000 0.000000
1.000000 0.125000 0.000000
0.187500 0.023438 0.070313
0.187500 0.023438 0.070313
0.187500 0.023438 0.070313
0.187500 0.023438 0.070313
0.187500 0.023438 0.070313
0.187500 0.023438 0.070313
0.187500 0.156250 0.000000
0.218750 0.156250 0.000000
0.250000 0.156250 0.000000
0.281250 0.156250 0.000000
0.312500 0.156250 0.000000
0.343750 0.156250 0.000000
0.375000 0.156250 0.000000
0.406250 0.156250 0.000000
0.437500 0.156250 0.000000
0.468750 0.156250 0.000000
0.500000 0.156250 0.000000
0.531250 0.156250 0.000000
0.562500 0.156250 0.000000
0.593750 0.156250 0.000000
0.625000 0.156250 0.000000
0.656250 0.156250 0.000000
0.687500 0.156250 0.000000
0.718750 0.156250 0.000000
0.750000 0.156250 0.000000
0.781250 0.156250 0.000000
0.812500 0.156250 0.000000
0.843750 0.156250 0.000000
0.875000 0.156250 0.000000
0.906250 0.156250 0.000000
0.937500 0.156250 0.000000
0.968750 0.156250 0.000000
1.000000 0.156250 0.000000
0.225000 0.028125 0.084375
0.225000 0.028125 0.084375
0.225000 0.028125 0.084375
0.225000 0.028125 0.084375
0.225000 0.028125 0.084375
0.225000 0.028125 0.084375
0.225000 0.028125 0.084375
0.262500 0.032813 0.098437
0.250000 0.187500 0.000000
0.281250 0.187500 0.000000
0.312500 0.187500 0.000000
0.343750 0.187500 0.000000
0.375000 0.187500 0.000000
0.406250 0.187500 0.000000
0.437500 0.187500 0.000000
0.468750 0.187500 0.000000
0.500000 0.187500 0.000000
0.531250 0.187500 0.000000
0.562500 0.187500 0.000000
0.593750 0.187500 0.000000
0.625000 0.187500 0.000000
0.656250 0.187500 0.000000
0.687500 0.187500 0.000000
0.718750 0.187500 0.000000
0.750000 0.187500 0.000000
0.781250 0.187500 0.000000
0.812500 0.187500 0.000000
0.843750 0.187500 0.000000
0.875000 0.187500 0.000000
0.906250 0.187500 0.000000
0.937500 0.187500 0.000000
0.968750 0.187500 0.000000
1.000000 0.187500 0.000000
0.262500 0.032813 0.098437
0.262500 0.032813 0.098437
0.262500 0.032813 0.098437
0.262500 0.032813 0.098437
0.262500 0.032813 0.098437
0.262500 0.032813 0.098437
0.262500 0.032813 0.098437
0.262500 0.032813 0.098437
0.300000 0.037500 0.112500
0.281250 0.218750 0.000000
0.312500 0.218750 0.000000
0.343750 0.218750 0.000000
0.375000 0.218750 0.000000
0.406250 0.218750 0.000000
0.437500 0.218750 0.000000
0.468750 0.218750 0.000000
0.500000 0.218750 0.000000
0.531250 0.218750 0.000000
0.562500 0.218750 0.000000
0.593750 0.218750 0.000000
0.625000 0.218750 0.000000
0.656250 0.218750 0.000000
0.687500 0.218750 0.000000
0.718750 0.218750 0.000000
0.750000 0.218750 0.000000
0.781250 0.218750 0.000000
0.812500 0.218750 0.000000
0.843750 0.218750 0.000000
0.875000 0.218750 0.000000
0.906250 0.218750 0.000000
0.937500 0.218750 0.000000
0.968750 0.218750 0.000000
1.000000 0.218750 0.000000
0.300000 0.037500 0.112500
0.300000 0.037500 0.112500
0.300000 0.037500 0.112500
0.300000 0.037500 0.112500
0.300000 0.037500 0.112500
0.300000 0.037500 0.112500
0.300000 0.037500 0.112500
0.300000 0.037500 0.112500
0.300000 0.037500 0.112500
0.337500 0.042187 0.126562
0.312500 0.250000 0.000000
0.343750 0.250000 0.000000
0.375000 0.250000 0.000000
0.406250 0.250000 0.000000
0.437500 0.250000 0.000000
0.468750 0.250000 0.000000
0.500000 0.250000 0.000000
0.531250 0.250000 0.000000
0.562500 0.250000 0.000000
0.593750 0.250000 0.000000
0.625000 0.250000 0.000000
0.656250 0.250000 0.000000
0.687500 0.250000 0.000000
0.718750 0.250000 0.000000
0.750000 0.250000 0.000000
0.781250 0.250000 0.000000
0.812500 0.250000 0.000000
0.843750 0.250000 0.000000
0.875000 0.250000 0.000000
0.906250 0.250000 0.000000
0.937500 0.250000 0.000000
0.968750 0.250000 0.000000
1.000000 0.250000 0.000000
0.337500 0.042187 0.126562
0.337500 0.042187 0.126562
0.337500 0.042187 0.126562
0.337500 0.042187 0.126562
0.337500 0.042187 0.126562
0.337500 0.042187 0.126562
0.337500 0.042187 0.126562
0.337500 0.042187 0.126562
0.337500 0.042187 0.126562
0.337500 0.042187 0.126562
0.375000 0.046875 0.140625
0.343750 0.281250 0.000000
0.375000 0.281250 0.000000
0.406250 0.281250 0.000000
0.437500 0.281250 0.000000
0.468750 0.281250 0.000000
0.500000 0.281250 0.000000
0.531250 0.281250 0.000000
0.562500 0.281250 0.000000
0.593750 0.281250 0.000000
0.625000 0.281250 0.000000
0.656250 0.281250 0.000000
0.687500 0.281250 0.000000
0.718750 0.281250 0.000000
0.750000 0.281250 0.000000
0.781250 0.281250 0.000000
0.812500 0.281250 0.000000
0.843750 0.281250 0.000000
0.875000 0.281250 0.000000
0.906250 0.281250 0.000000
0.937500 0.281250 0.000000
0.968750 0.281250 0.000000
1.000000 0.281250 0.000000
0.375000 0.046875 0.140625
0.375000 0.046875 0.140625
0.375000 0.046875 0.140625
0.375000 0.046875 0.140625
0.375000 0.046875 0.140625
0.375000 0.046875 0.140625
0.375000 0.046875 0.140625
0.375000 0.046875 0.140625
0.375000 0.046875 0.140625
0.375000 0.046875 0.140625
0.375000 0.046875 0.140625
0.412500 0.051562 0.154688
0.375000 0.312500 0.000000
0.406250 0.312500 0.000000
0.437500 0.312500 0.000000
0.468750 0.312500 0.000000
0.500000 0.312500 0.000000
0.531250 0.312500 0.000000
0.562500 0.312500 0.000000
0.593750 0.312500 0.000000
0.625000 0.312500 0.000000
0.656250 0.312500 0.000000
0.687500 0.312500 0.000000
0.718750 0.312500 0.000000
0.750000 0.312500 0.000000
0.781250 0.312500 0.000000
0.812500 0.312500 0.000000
0.843750 0.312500 0.000000
0.875000 0.312500 0.000000
0.906250 0.312500 0.000000
0.937500 0.312500 0.000000
0.968750 0.312500 0.000000
1.000000 0.312500 0.000000
0.412500 0.051562 0.154688
0.412500 0.051562 0.154688
0.412500 0.051562 0.154688
0.412500 0.051562 0.154688
0.412500 0.051562 0.154688
0.412500 0.051562 0.154688
0.412500 0.051562 0.154688
0.412500 0.051562 0.154688
0.412500 0.051562 0.154688
0.412500 0.051562 0.154688
0.412500 0.051562 0.154688
0.412500 0.051562 0.154688
0.450000 0.056250 0.168750
0.487500 0.060937 0.182813
0.437500 0.343750 0.000000
0.468750 0.343750 0.000000
0.500000 0.343750 0.000000
0.531250 0.343750 0.000000
0.562500 0.343750 0.000000
0.593750 0.343750 0.000000
0.625000 0.343750 0.000000
0.656250 0.343750 0.000000
0.687500 0.343750 0.000000
0.718750 0.343750 0.000000
0.750000 0.343750 0.000000
0.781250 0.343750 0.000000
0.812500 0.343750 0.000000
0.843750 0.343750 0.000000
0.875000 0.343750 0.000000
0.906250 0.343750 0.000000
0.937500 0.343750 0.000000
0.968750 0.343750 0.000000
1.000000 0.343750 0.000000
0.450000 0.056250 0.168750
0.450000 0.056250 0.168750
0.450000 0.056250 0.168750
0.450000 0.056250 0.168750
0.450000 0.056250 0.168750
0.450000 0.056250 0.168750
0.450000 0.056250 0.168750
0.450000 0.056250 0.168750
0.450000 0.056250 0.168750
0.450000 0.056250 0.168750
0.450000 0.056250 0.168750
0.450000 0.056250 0.168750
0.450000 0.056250 0.168750
0.487500 0.060937 0.182813
0.525000 0.065625 0.196875
0.468750 0.375000 0.000000
0.500000 0.375000 0.000000
0.531250 0.375000 0.000000
0.562500 0.375000 0.000000
0.593750 0.375000 0.000000
0.625000 0.375000 0.000000
0.656250 0.375000 0.000000
0.687500 0.375000 0.000000
0.718750 0.375000 0.000000
0.750000 0.375000 0.000000
0.781250 0.375000 0.000000
0.812500 0.375000 0.000000
0.843750 0.375000 0.000000
0.875000 0.375000 0.000000
0.906250 0.375000 0.000000
0.937500 0.375000 0.000000
0.968750 0.375000 0.000000
1.000000 0.375000 0.000000
0.487500 0.060937 0.182813
0.487500 0.060937 0.182813
0.487500 0.060937 0.182813
0.487500 0.060937 0.182813
0.487500 0.060937 0.182813
0.487500 0.060937 0.182813
0.487500 0.060937 0.182813
0.487500 0.060937 0.182813
0.487500 0.060937 0.182813
0.487500 0.060937 0.182813
0.487500 0.060937 0.182813
0.487500 0.060937 0.182813
0.487500 0.060937 0.182813
0.487500 0.060937 0.182813
0.525000 0.065625 0.196875
0.562500 0.070313 0.210938
0.500000 0.406250 0.000000
0.531250 0.406250 0.000000
0.562500 0.406250 0.000000
0.593750 0.406250 0.000000
0.625000 0.406250 0.000000
0.656250 0.406250 0.000000
0.687500 0.406250 0.000000
0.718750 0.406250 0.000000
0.750000 0.406250 0.000000
0.781250 0.406250 0.000000
0.812500 0.406250 0.000000
0.843750 0.406250 0.000000
0.875000 0.406250 0.000000
0.906250 0.406250 0.000000
0.937500 0.406250 0.000000
0.968750 0.406250 0.000000
1.000000 0.406250 0.000000
0.525000 0.065625 0.196875
0.525000 0.065625 0.196875
0.525000 0.065625 0.196875
0.525000 0.065625 0.196875
0.525000 0.065625 0.196875
0.525000 0.065625 0.196875
0.525000 0.065625 0.196875
0.525000 0.065625 0.196875
0.525000 0.065625 0.196875
0.525000 0.065625 0.196875
0.525000 0.065625 0.196875
0.525000 0.065625 0.196875
0.525000 0.065625 0.196875
0.525000 0.065625 0.196875
0.525000 0.065625 0.196875
0.562500 0.070313 0.210938
0.600000 0.075000 0.225000
0.531250 0.437500 0.000000
0.562500 0.437500 0.000000
0.593750 0.437500 0.000000
0.625000 0.437500 0.000000
0.656250 0.437500 0.000000
0.687500 0.437500 0.000000
0.718750 0.437500 0.000000
0.750000 0.437500 0.000000
0.781250 0.437500 0.000000
0.812500 0.437500 0.000000
0.843750 0.437500 0.000000
0.875000 0.437500 0.000000
0.906250 0.437500 0.000000
0.937500 0.437500 0.000000
0.968750 0.437500 0.000000
1.000000 0.437500 0.000000
0.562500 0.070313 0.210938
0.562500 0.070313 0.210938
0.562500 0.070313 0.210938
0.562500 0.070313 0.210938
0.562500 0.070313 0.210938
0.562500 0.070313 0.210938
0.562500 0.070313 0.210938
0.562500 0.070313 0.210938
0.562500 0.070313 0.210938
0.562500 0.070313 0.210938
0.562500 0.070313 0.210938
0.562500 0.070313 0.210938
0.562500 0.070313 0.210938
0.562500 0.070313 0.210938
0.562500 0.070313 0.210938
0.562500 0.070313 0.210938
0.600000 0.075000 0.225000
0.637500 0.079687 0.239063
0.562500 0.468750 0.000000
0.593750 0.468750 0.000000
0.625000 0.468750 0.000000
0.656250 0.468750 0.000000
0.687500 0.468750 0.000000
0.718750 0.468750 0.000000
0.750000 0.468750 0.000000
0.781250 0.468750 0.000000
0.812500 0.468750 0.000000
0.843750 0.468750 0.000000
0.875000 0.468750 0.000000
0.906250 0.468750 0.000000
0.937500 0.468750 0.000000
0.968750 0.468750 0.000000
1.000000 0.468750 0.000000
0.600000 0.075000 0.225000
0.600000 0.075000 0.225000
0.600000 0.075000 0.225000
0.600000 0.075000 0.225000
0.600000 0.075000 0.225000
0.600000 0.075000 0.225000
0.600000 0.075000 0.225000
0.600000 0.075000 0.225000
0.600000 0.075000 0.225000
0.600000 0.075000 0.225000
0.600000 0.075000 0.225000
0.600000 0.075000 0.225000
0.600000 0.075000 0.225000
0.600000 0.075000 0.225000
0.600000 0.075000 0.225000
0.600000 0.075000 0.225000
0.600000 0.075000 0.225000
0.637500 0.079687 0.239063
0.675000 0.084375 0.253125
0.712500 0.089063 0.267188
0.625000 0.500000 0.000000
0.656250 0.500000 0.000000
0.687500 0.500000 0.000000
0.718750 0.500000 0.000000
0.750000 0.500000 0.000000
0.781250 0.500000 0.000000
0.812500 0.500000 0.000000
0.843750 0.500000 0.000000
0.875000 0.500000 0.000000
0.906250 0.500000 0.000000
0.937500 0.500000 0.000000
0.968750 0.500000 0.000000
1.000000 0.500000 0.000000
0.637500 0.079687 0.239063
0.637500 0.079687 0.239063
0.637500 0.079687 0.239063
0.637500 0.079687 0.239063
0.637500 0.079687 0.239063
0.637500 0.079687 0.239063
0.637500 0.079687 0.239063
0.637500 0.079687 0.239063
0.637500 0.079687 0.239063
0.637500 0.079687 0.239063
0.637500 0.079687 0.239063
0.637500 0.079687 0.239063
0.637500 0.079687 0.239063
0.637500 0.079687 0.239063
0.637500 0.079687 0.239063
0.637500 0.079687 0.239063
0.637500 0.079687 0.239063
0.637500 0.079687 0.239063
0.675000 0.084375 0.253125
0.712500 0.089063 0.267188
0.750000 0.093750 0.281250
0.656250 0.531250 0.000000
0.687500 0.531250 0.000000
0.718750 0.531250 0.000000
0.750000 0.531250 0.000000
0.781250 0.531250 0.000000
0.812500 0.531250 0.000000
0.843750 0.531250 0.000000
0.875000 0.531250 0.000000
0.906250 0.531250 0.000000
0.937500 0.531250 0.000000
0.968750 0.531250 0.000000
1.000000 0.531250 0.000000
0.675000 0.084375 0.253125
0.675000 0.084375 0.253125
0.675000 0.084375 0.253125
0.675000 0.084375 0.253125
0.675000 0.084375 0.253125
0.675000 0.084375 0.253125
0.675000 0.084375 0.253125
0.675000 0.084375 0.253125
0.675000 0.084375 0.253125
0.675000 0.084375 0.253125
0.675000 0.084375 0.253125
0.675000 0.084375 0.253125
0.675000 0.084375 0.253125
0.675000 0.084375 0.253125
0.675000 0.084375 0.253125
0.675000 0.084375 0.253125
0.675000 0.084375 0.253125
0.675000 0.084375 0.253125
0.675000 0.084375 0.253125
0.712500 0.089063 0.267188
0.750000 0.093750 0.281250
0.787500 0.098437 0.295313
0.687500 0.562500 0.000000
0.718750 0.562500 0.000000
0.750000 0.562500 0.000000
0.781250 0.562500 0.000000
0.812500 0.562500 0.000000
0.843750 0.562500 0.000000
0.875000 0.562500 0.000000
0.906250 0.562500 0.000000
0.937500 0.562500 0.000000
0.968750 0.562500 0.000000
1.000000 0.562500 0.000000
0.712500 0.089063 0.267188
0.712500 0.089063 0.267188
0.712500 0.089063 0.267188
0.712500 0.089063 0.267188
0.712500 0.089063 0.267188
0.712500 0.089063 0.267188
0.712500 0.089063 0.267188
0.712500 0.089063 0.267188
0.712500 0.089063 0.267188
0.712500 0.089063 0.267188
0.712500 0.089063 0.267188
0.712500 0.089063 0.267188
0.712500 0.089063 0.267188
0.712500 0.089063 0.267188
0.712500 0.089063 0.267188
0.712500 0.089063 0.267188
0.712500 0.089063 0.267188
0.712500 0.089063 0.267188
0.712500 0.089063 0.267188
0.712500 0.089063 0.267188
0.750000 0.093750 0.281250
0.787500 0.098437 0.295313
0.825000 0.103125 0.309375
0.718750 0.593750 0.000000
0.750000 0.593750 0.000000
0.781250 0.593750 0.000000
0.812500 0.593750 0.000000
0.843750 0.593750 0.000000
0.875000 0.593750 0.000000
0.906250 0.593750 0.000000
0.937500 0.593750 0.000000
0.968750 0.593750 0.000000
1.000000 0.593750 0.000000
0.750000 0.093750 0.281250
0.750000 0.093750 0.281250
0.750000 0.093750 0.281250
0.750000 0.093750 0.281250
0.750000 0.093750 0.281250
0.750000 0.093750 0.281250
0.750000 0.093750 0.281250
0.750000 0.093750 0.281250
0.750000 0.093750 0.281250
0.750000 0.093750 0.281250
0.750000 0.093750 0.281250
0.750000 0.093750 0.281250
0.750000 0.093750 0.281250
0.750000 0.093750 0.281250
0.750000 0.093750 0.281250
0.750000 0.093750 0.281250
0.750000 0.093750 0.281250
0.750000 0.093750 0.281250
0.750000 0.093750 0.281250
0.750000 0.093750 0.281250
0.750000 0.093750 0.281250
0.787500 0.098437 0.295313
0.825000 0.103125 0.309375
0.862500 0.107812 0.323437
0.750000 0.625000 0.000000
0.781250 0.625000 0.000000
0.812500 0.625000 0.000000
0.843750 0.625000 0.000000
0.875000 0.625000 0.000000
0.906250 0.625000 0.000000
0.937500 0.625000 0.000000
0.968750 0.625000 0.000000
1.000000 0.625000 0.000000
0.787500 0.098437 0.295313
0.787500 0.098437 0.295313
0.787500 0.098437 0.295313
0.787500 0.098437 0.295313
0.787500 0.098437 0.295313
0.787500 0.098437 0.295313
0.787500 0.098437 0.295313
0.787500 0.098437 0.295313
0.787500 0.098437 0.295313
0.787500 0.098437 0.295313
0.787500 0.098437 0.295313
0.787500 0.098437 0.295313
0.787500 0.098437 0.295313
0.787500 0.098437 0.295313
0.787500 0.098437 0.295313
0.787500 0.098437 0.295313
0.787500 0.098437 0.295313
0.787500 0.098437 0.295313
0.787500 0.098437 0.295313
0.787500 0.098437 0.295313
0.787500 0.098437 0.295313
0.787500 0.098437 0.295313
0.825000 0.103125 0.309375
0.862500 0.107812 0.323437
0.900000 0.112500 0.337500
0.781250 0.656250 0.000000
0.812500 0.656250 0.000000
0.843750 0.656250 0.000000
0.875000 0.656250 0.000000
0.906250 0.656250 0.000000
0.937500 0.656250 0.000000
0.968750 0.656250 0.000000
1.000000 0.656250 0.000000
0.825000 0.103125 0.309375
0.825000 0.103125 0.309375
0.825000 0.103125 0.309375
0.825000 0.103125 0.309375
0.825000 0.103125 0.309375
0.825000 0.103125 0.309375
0.825000 0.103125 0.309375
0.825000 0.103125 0.309375
0.825000 0.103125 0.309375
0.825000 0.103125 0.309375
0.825000 0.103125 0.309375
0.825000 0.103125 0.309375
0.825000 0.103125 0.309375
0.825000 0.103125 0.309375
0.825000 0.103125 0.309375
0.825000 0.103125 0.309375
0.825000 0.103125 0.309375
0.825000 0.103125 0.309375
0.825000 0.103125 0.309375
0.825000 0.103125 0.309375
0.825000 0.103125 0.309375
0.825000 0.103125 0.309375
0.825000 0.103125 0.309375
0.862500 0.107812 0.323437
0.900000 0.112500 0.337500
0.937500 0.117188 0.351563
0.975000 0.121875 0.365625
0.843750 0.687500 0.000000
0.875000 0.687500 0.000000
0.906250 0.687500 0.000000
0.937500 0.687500 0.000000
0.968750 0.687500 0.000000
1.000000 0.687500 0.000000
0.862500 0.107812 0.323437
0.862500 0.107812 0.323437
0.862500 0.107812 0.323437
0.862500 0.107812 0.323437
0.862500 0.107812 0.323437
0.862500 0.107812 0.323437
0.862500 0.107812 0.323437
0.862500 0.107812 0.323437
0.862500 0.107812 0.323437
0.862500 0.107812 0.323437
0.862500 0.107812 0.323437
0.862500 0.107812 0.323437
0.862500 0.107812 0.323437
0.862500 0.107812 0.323437
0.862500 0.107812 0.323437
0.862500 0.107812 0.323437
0.862500 0.107812 0.323437
0.862500 0.107812 0.323437
0.862500 0.107812 0.323437
0.862500 0.107812 0.323437
0.862500 0.107812 0.323437
0.862500 0.107812 0.323437
0.862500 0.107812 0.323437
0.862500 0.107812 0.323437
0.900000 0.112500 0.337500
0.937500 0.117188 0.351563
0.975000 0.121875 0.365625
1.000000 0.126562 0.379688
0.875000 0.718750 0.000000
0.906250 0.718750 0.000000
0.937500 0.718750 0.000000
0.968750 0.718750 0.000000
1.000000 0.718750 0.000000
0.900000 0.112500 0.337500
0.900000 0.112500 0.337500
0.900000 0.112500 0.337500
0.900000 0.112500 0.337500
0.900000 0.112500 0.337500
0.900000 0.112500 0.337500
0.900000 0.112500 0.337500
0.900000 0.112500 0.337500
0.900000 0.112500 0.337500
0.900000 0.112500 0.337500
0.900000 0.112500 0.337500
0.900000 0.112500 0.337500
0.900000 0.112500 0.337500
0.900000 0.112500 0.337500
0.900000 0.112500 0.337500
0.900000 0.112500 0.337500
0.900000 0.112500 0.337500
0.900000 0.112500 0.337500
0.900000 0.112500 0.337500
0.900000 0.112500 0.337500
0.900000 0.112500 0.337500
0.900000 0.112500 0.337500
0.900000 0.112500 0.337500
0.900000 0.112500 0.337500
0.900000 0.112500 0.337500
0.937500 0.117188 0.351563
0.975000 0.121875 0.365625
1.000000 0.126562 0.379688
1.000000 0.131250 0.393750
0.906250 0.750000 0.000000
0.937500 0.750000 0.000000
0.968750 0.750000 0.000000
1.000000 0.750000 0.000000
0.937500 0.117188 0.351563
0.937500 0.117188 0.351563
0.937500 0.117188 0.351563
0.937500 0.117188 0.351563
0.937500 0.117188 0.351563
0.937500 0.117188 0.351563
0.937500 0.117188 0.351563
0.937500 0.117188 0.351563
0.937500 0.117188 0.351563
0.937500 0.117188 0.351563
0.937500 0.117188 0.351563
0.937500 0.117188 0.351563
0.937500 0.117188 0.351563
0.937500 0.117188 0.351563
0.937500 0.117188 0.351563
0.937500 0.117188 0.351563
0.937500 0.117188 0.351563
0.937500 0.117188 0.351563
0.937500 0.117188 0.351563
0.937500 0.117188 0.351563
0.937500 0.117188 0.351563
0.937500 0.117188 0.351563
0.937500 0.117188 0.351563
0.937500 0.117188 0.351563
0.937500 0.117188 0.351563
0.937500 0.117188 0.351563
0.975000 0.121875 0.365625
1.000000 0.126562 0.379688
1.000000 0.131250 0.393750
1.000000 0.135937 0.407813
0.937500 0.781250 0.000000
0.968750 0.781250 0.000000
1.000000 0.781250 0.000000
0.975000 0.121875 0.365625
0.975000 0.121875 0.365625
0.975000 0.121875 0.365625
0.975000 0.121875 0.365625
0.975000 0.121875 0.365625
0.975000 0.121875 0.365625
0.975000 0.121875 0.365625
0.975000 0.121875 0.365625
0.975000 0.121875 0.365625
0.975000 0.121875 0.365625
0.975000 0.121875 0.365625
0.975000 0.121875 0.365625
0.975000 0.121875 0.365625
0.975000 0.121875 0.365625
0.975000 0.121875 0.365625
0.975000 0.121875 0.365625
0.975000 0.121875 0.365625
0.975000 0.121875 0.365625
0.975000 0.121875 0.365625
0.975000 0.121875 0.365625
0.975000 0.121875 0.365625
0.975000 0.121875 0.365625
0.975000 0.121875 0.365625
0.975000 0.121875 0.365625
0.975000 0.121875 0.365625
