public/luts/infrared-magenta.cube
# Simulated infrared: green colors become red/magenta
TITLE "Infrared Magenta"
LUT_3D_SIZE 5
DOMAIN_MIN 0.0 0.0 0.0
DOMAIN_MAX 1.0 1.0 1.0
0.000000 0.000000 0.000000
0.250000 0.000000 0.000000
0.500000 0.000000 0.000000
0.750000 0.000000 0.000000
1.000000 0.000000 0.000000
0.300000 0.037500 0.112500
0.300000 0.037500 0.112500
0.500000 0.250000 0.000000
0.750000 0.250000 0.000000
1.000000 0.250000 0.000000
0.600000 0.075000 0.225000
0.600000 0.075000 0.225000
0.600000 0.075000 0.225000
0.750000 0.500000 0.000000
1.000000 0.500000 0.000000
0.900000 0.112500 0.337500
0.900000 0.112500 0.337500
0.900000 0.112500 0.337500
0.900000 0.112500 0.337500
1.000000 0.750000 0.000000
1.000000 0.150000 0.450000
1.000000 0.150000 0.450000
1.000000 0.150000 0.450000
1.000000 0.150000 0.450000
1.000000 0.150000 0.450000
0.000000 0.000000 0.250000
0.250000 0.000000 0.250000
0.500000 0.000000 0.250000
0.750000 0.000000 0.250000
1.000000 0.000000 0.250000
0.300000 0.037500 0.112500
0.250000 0.250000 0.250000
0.500000 0.250000 0.250000
0.750000 0.250000 0.250000
1.000000 0.250000 0.250000
0.600000 0.075000 0.225000
0.600000 0.075000 0.225000
0.600000 0.075000 0.225000
0.750000 0.500000 0.250000
1.000000 0.500000 0.250000
0.900000 0.112500 0.337500
0.900000 0.112500 0.337500
0.900000 0.112500 0.337500
0.900000 0.112500 0.337500
1.000000 0.750000 0.250000
1.000000 0.150000 0.450000
1.000000 0.150000 0.450000
1.000000 0.150000 0.450000
1.000000 0.150000 0.450000
1.000000 0.150000 0.450000
0.000000 0.000000 0.500000
0.250000 0.000000 0.500000
0.500000 0.000000 0.500000
0.750000 0.000000 0.500000
1.000000 0.000000 0.500000
0.000000 0.250000 0.500000
0.250000 0.250000 0.500000
0.500000 0.250000 0.500000
0.750000 0.250000 0.500000
1.000000 0.250000 0.500000
0.600000 0.075000 0.225000
0.600000 0.075000 0.225000
0.500000 0.500000 0.500000
0.750000 0.500000 0.500000
1.000000 0.500000 0.500000
0.900000 0.112500 0.337500
0.900000 0.112500 0.337500
0.900000 0.112500 0.337500
0.900000 0.112500 0.337500
1.000000 0.750000 0.500000
1.000000 0.150000 0.450000
1.000000 0.150000 0.450000
1.000000 0.150000 0.450000
1.000000 0.150000 0.450000
1.000000 0.150000 0.450000
0.000000 0.000000 0.750000
0.250000 0.000000 0.750000
0.500000 0.000000 0.750000
0.750000 0.000000 0.750000
1.000000 0.000000 0.750000
0.000000 0.250000 0.750000
0.250000 0.250000 0.750000
0.500000 0.250000 0.750000
0.750000 0.250000 0.750000
1.000000 0.250000 0.750000
0.000000 0.500000 0.750000
0.250000 0.500000 0.750000
0.500000 0.500000 0.750000
0.750000 0.500000 0.750000
1.000000 0.500000 0.750000
0.900000 0.112500 0.337500
0.900000 0.112500 0.337500
0.900000 0.112500 0.337500
0.750000 0.750000 0.750000
1.000000 0.750000 0.750000
1.000000 0.150000 0.450000
1.000000 0.150000 0.450000
1.000000 0.150000 0.450000
1.000000 0.150000 0.450000
1.000000 0.150000 0.450000
0.000000 0.000000 1.000000
0.250000 0.000000 1.000000
0.500000 0.000000 1.000000
0.750000 0.000000 1.000000
1.000000 0.000000 1.000000
0.000000 0.250000 1.000000
0.250000 0.250000 1.000000
0.500000 0.250000 1.000000
0.750000 0.250000 1.000000
1.000000 0.250000 1.000000
0.000000 0.500000 1.000000
0.250000 0.500000 1.000000
0.500000 0.500000 1.000000
0.750000 0.500000 1.000000
1.000000 0.500000 1.000000
0.000000 0.750000 1.000000
0.250000 0.750000 1.000000
0.500000 0.750000 1.000000
0.750000 0.750000 1.000000
1.000000 0.750000 1.000000
1.000000 0.150000 0.450000
1.000000 0.150000 0.450000
1.000000 0.150000 0.450000
1.000000 0.150000 0.450000
1.000000 1.000000 1.000000
