public/luts/rgb-screen.cube
# Generated from the RGB Screen experiment
# PIL grayscale luminance, then R=1.15L G=0.75L B=0.45L
TITLE "RGB Screen"
LUT_3D_SIZE 9
DOMAIN_MIN 0.0 0.0 0.0
DOMAIN_MAX 1.0 1.0 1.0
0.000000 0.000000 0.000000
0.042981 0.028031 0.016819
0.085962 0.056063 0.033638
0.128944 0.084094 0.050456
0.171925 0.112125 0.067275
0.214906 0.140156 0.084094
0.257887 0.168187 0.100913
0.300869 0.196219 0.117731
0.343850 0.224250 0.134550
0.084381 0.055031 0.033019
0.127362 0.083062 0.049837
0.170344 0.111094 0.066656
0.213325 0.139125 0.083475
0.256306 0.167156 0.100294
0.299287 0.195187 0.117112
0.342269 0.223219 0.133931
0.385250 0.251250 0.150750
0.428231 0.279281 0.167569
0.168762 0.110062 0.066037
0.211744 0.138094 0.082856
0.254725 0.166125 0.099675
0.297706 0.194156 0.116494
0.340687 0.222188 0.133313
0.383669 0.250219 0.150131
0.426650 0.278250 0.166950
0.469631 0.306281 0.183769
0.512612 0.334313 0.200588
0.253144 0.165094 0.099056
0.296125 0.193125 0.115875
0.339106 0.221156 0.132694
0.382087 0.249188 0.149512
0.425069 0.277219 0.166331
0.468050 0.305250 0.183150
0.511031 0.333281 0.199969
0.554013 0.361313 0.216788
0.596994 0.389344 0.233606
0.337525 0.220125 0.132075
0.380506 0.248156 0.148894
0.423487 0.276187 0.165712
0.466469 0.304219 0.182531
0.509450 0.332250 0.199350
0.552431 0.360281 0.216169
0.595412 0.388312 0.232987
0.638394 0.416344 0.249806
0.681375 0.444375 0.266625
0.421906 0.275156 0.165094
0.464887 0.303187 0.181912
0.507869 0.331219 0.198731
0.550850 0.359250 0.215550
0.593831 0.387281 0.232369
0.636812 0.415312 0.249187
0.679794 0.443344 0.266006
0.722775 0.471375 0.282825
0.765756 0.499406 0.299644
0.506287 0.330187 0.198112
0.549269 0.358219 0.214931
0.592250 0.386250 0.231750
0.635231 0.414281 0.248569
0.678212 0.442312 0.265387
0.721194 0.470344 0.282206
0.764175 0.498375 0.299025
0.807156 0.526406 0.315844
0.850137 0.554437 0.332662
0.590669 0.385219 0.231131
0.633650 0.413250 0.247950
0.676631 0.441281 0.264769
0.719612 0.469313 0.281588
0.762594 0.497344 0.298406
0.805575 0.525375 0.315225
0.848556 0.553406 0.332044
0.891537 0.581438 0.348863
0.934519 0.609469 0.365681
0.675050 0.440250 0.264150
0.718031 0.468281 0.280969
0.761012 0.496312 0.297787
0.803994 0.524344 0.314606
0.846975 0.552375 0.331425
0.889956 0.580406 0.348244
0.932937 0.608437 0.365063
0.975919 0.636469 0.381881
1.000000 0.664500 0.398700
0.016387 0.010688 0.006413
0.059369 0.038719 0.023231
0.102350 0.066750 0.040050
0.145331 0.094781 0.056869
0.188312 0.122813 0.073688
0.231294 0.150844 0.090506
0.274275 0.178875 0.107325
0.317256 0.206906 0.124144
0.360237 0.234937 0.140962
0.100769 0.065719 0.039431
0.143750 0.093750 0.056250
0.186731 0.121781 0.073069
0.229712 0.149813 0.089888
0.272694 0.177844 0.106706
0.315675 0.205875 0.123525
0.358656 0.233906 0.140344
0.401637 0.261937 0.157162
0.444619 0.289969 0.173981
0.185150 0.120750 0.072450
0.228131 0.148781 0.089269
0.271112 0.176812 0.106088
0.314094 0.204844 0.122906
0.357075 0.232875 0.139725
0.400056 0.260906 0.156544
0.443037 0.288937 0.173363
0.486019 0.316969 0.190181
0.529000 0.345000 0.207000
0.269531 0.175781 0.105469
0.312512 0.203813 0.122287
0.355494 0.231844 0.139106
0.398475 0.259875 0.155925
0.441456 0.287906 0.172744
0.484437 0.315937 0.189562
0.527419 0.343969 0.206381
0.570400 0.372000 0.223200
0.613381 0.400031 0.240019
0.353912 0.230812 0.138487
0.396894 0.258844 0.155306
0.439875 0.286875 0.172125
0.482856 0.314906 0.188944
0.525837 0.342937 0.205762
0.568819 0.370969 0.222581
0.611800 0.399000 0.239400
0.654781 0.427031 0.256219
0.697762 0.455063 0.273037
0.438294 0.285844 0.171506
0.481275 0.313875 0.188325
0.524256 0.341906 0.205144
0.567237 0.369937 0.221962
0.610219 0.397969 0.238781
0.653200 0.426000 0.255600
0.696181 0.454031 0.272419
0.739162 0.482062 0.289237
0.782144 0.510094 0.306056
0.522675 0.340875 0.204525
0.565656 0.368906 0.221344
0.608637 0.396937 0.238162
0.651619 0.424969 0.254981
0.694600 0.453000 0.271800
0.737581 0.481031 0.288619
0.780562 0.509062 0.305437
0.823544 0.537094 0.322256
0.866525 0.565125 0.339075
0.607056 0.395906 0.237544
0.650037 0.423938 0.254363
0.693019 0.451969 0.271181
0.736000 0.480000 0.288000
0.778981 0.508031 0.304819
0.821962 0.536062 0.321638
0.864944 0.564094 0.338456
0.907925 0.592125 0.355275
0.950906 0.620156 0.372094
0.691437 0.450937 0.270562
0.734419 0.478969 0.287381
0.777400 0.507000 0.304200
0.820381 0.535031 0.321019
0.863362 0.563062 0.337837
0.906344 0.591094 0.354656
0.949325 0.619125 0.371475
0.992306 0.647156 0.388294
1.000000 0.675187 0.405112
0.032775 0.021375 0.012825
0.075756 0.049406 0.029644
0.118737 0.077437 0.046462
0.161719 0.105469 0.063281
0.204700 0.133500 0.080100
0.247681 0.161531 0.096919
0.290662 0.189563 0.113738
0.333644 0.217594 0.130556
0.376625 0.245625 0.147375
0.117156 0.076406 0.045844
0.160137 0.104437 0.062662
0.203119 0.132469 0.079481
0.246100 0.160500 0.096300
0.289081 0.188531 0.113119
0.332062 0.216562 0.129938
0.375044 0.244594 0.146756
0.418025 0.272625 0.163575
0.461006 0.300656 0.180394
0.201537 0.131437 0.078863
0.244519 0.159469 0.095681
0.287500 0.187500 0.112500
0.330481 0.215531 0.129319
0.373463 0.243563 0.146138
0.416444 0.271594 0.162956
0.459425 0.299625 0.179775
0.502406 0.327656 0.196594
0.545387 0.355687 0.213413
0.285919 0.186469 0.111881
0.328900 0.214500 0.128700
0.371881 0.242531 0.145519
0.414862 0.270563 0.162338
0.457844 0.298594 0.179156
0.500825 0.326625 0.195975
0.543806 0.354656 0.212794
0.586787 0.382687 0.229612
0.629769 0.410719 0.246431
0.370300 0.241500 0.144900
0.413281 0.269531 0.161719
0.456262 0.297563 0.178537
0.499244 0.325594 0.195356
0.542225 0.353625 0.212175
0.585206 0.381656 0.228994
0.628187 0.409687 0.245812
0.671169 0.437719 0.262631
0.714150 0.465750 0.279450
0.454681 0.296531 0.177919
0.497662 0.324562 0.194737
0.540644 0.352594 0.211556
0.583625 0.380625 0.228375
0.626606 0.408656 0.245194
0.669587 0.436687 0.262012
0.712569 0.464719 0.278831
0.755550 0.492750 0.295650
0.798531 0.520781 0.312469
0.539063 0.351563 0.210938
0.582044 0.379594 0.227756
0.625025 0.407625 0.244575
0.668006 0.435656 0.261394
0.710987 0.463687 0.278212
0.753969 0.491719 0.295031
0.796950 0.519750 0.311850
0.839931 0.547781 0.328669
0.882912 0.575812 0.345488
0.623444 0.406594 0.243956
0.666425 0.434625 0.260775
0.709406 0.462656 0.277594
0.752387 0.490687 0.294413
0.795369 0.518719 0.311231
0.838350 0.546750 0.328050
0.881331 0.574781 0.344869
0.924312 0.602812 0.361687
0.967294 0.630844 0.378506
0.707825 0.461625 0.276975
0.750806 0.489656 0.293794
0.793787 0.517687 0.310612
0.836769 0.545719 0.327431
0.879750 0.573750 0.344250
0.922731 0.601781 0.361069
0.965712 0.629812 0.377887
1.000000 0.657844 0.394706
1.000000 0.685875 0.411525
0.049162 0.032063 0.019238
0.092144 0.060094 0.036056
0.135125 0.088125 0.052875
0.178106 0.116156 0.069694
0.221087 0.144187 0.086513
0.264069 0.172219 0.103331
0.307050 0.200250 0.120150
0.350031 0.228281 0.136969
0.393012 0.256312 0.153787
0.133544 0.087094 0.052256
0.176525 0.115125 0.069075
0.219506 0.143156 0.085894
0.262487 0.171187 0.102713
0.305469 0.199219 0.119531
0.348450 0.227250 0.136350
0.391431 0.255281 0.153169
0.434412 0.283312 0.169987
0.477394 0.311344 0.186806
0.217925 0.142125 0.085275
0.260906 0.170156 0.102094
0.303887 0.198187 0.118912
0.346869 0.226219 0.135731
0.389850 0.254250 0.152550
0.432831 0.282281 0.169369
0.475812 0.310312 0.186188
0.518794 0.338344 0.203006
0.561775 0.366375 0.219825
0.302306 0.197156 0.118294
0.345287 0.225188 0.135113
0.388269 0.253219 0.151931
0.431250 0.281250 0.168750
0.474231 0.309281 0.185569
0.517212 0.337313 0.202387
0.560194 0.365344 0.219206
0.603175 0.393375 0.236025
0.646156 0.421406 0.252844
0.386687 0.252188 0.151312
0.429669 0.280219 0.168131
0.472650 0.308250 0.184950
0.515631 0.336281 0.201769
0.558612 0.364312 0.218587
0.601594 0.392344 0.235406
0.644575 0.420375 0.252225
0.687556 0.448406 0.269044
0.730537 0.476437 0.285863
0.471069 0.307219 0.184331
0.514050 0.335250 0.201150
0.557031 0.363281 0.217969
0.600012 0.391312 0.234787
0.642994 0.419344 0.251606
0.685975 0.447375 0.268425
0.728956 0.475406 0.285244
0.771937 0.503437 0.302062
0.814919 0.531469 0.318881
0.555450 0.362250 0.217350
0.598431 0.390281 0.234169
0.641412 0.418312 0.250987
0.684394 0.446344 0.267806
0.727375 0.474375 0.284625
0.770356 0.502406 0.301444
0.813337 0.530437 0.318263
0.856319 0.558469 0.335081
0.899300 0.586500 0.351900
0.639831 0.417281 0.250369
0.682812 0.445313 0.267188
0.725794 0.473344 0.284006
0.768775 0.501375 0.300825
0.811756 0.529406 0.317644
0.854737 0.557438 0.334462
0.897719 0.585469 0.351281
0.940700 0.613500 0.368100
0.983681 0.641531 0.384919
0.724212 0.472312 0.283387
0.767194 0.500344 0.300206
0.810175 0.528375 0.317025
0.853156 0.556406 0.333844
0.896137 0.584437 0.350662
0.939119 0.612469 0.367481
0.982100 0.640500 0.384300
1.000000 0.668531 0.401119
1.000000 0.696562 0.417937
0.065550 0.042750 0.025650
0.108531 0.070781 0.042469
0.151512 0.098812 0.059288
0.194494 0.126844 0.076106
0.237475 0.154875 0.092925
0.280456 0.182906 0.109744
0.323437 0.210938 0.126562
0.366419 0.238969 0.143381
0.409400 0.267000 0.160200
0.149931 0.097781 0.058669
0.192912 0.125812 0.075487
0.235894 0.153844 0.092306
0.278875 0.181875 0.109125
0.321856 0.209906 0.125944
0.364837 0.237937 0.142762
0.407819 0.265969 0.159581
0.450800 0.294000 0.176400
0.493781 0.322031 0.193219
0.234312 0.152812 0.091687
0.277294 0.180844 0.108506
0.320275 0.208875 0.125325
0.363256 0.236906 0.142144
0.406237 0.264937 0.158963
0.449219 0.292969 0.175781
0.492200 0.321000 0.192600
0.535181 0.349031 0.209419
0.578163 0.377063 0.226238
0.318694 0.207844 0.124706
0.361675 0.235875 0.141525
0.404656 0.263906 0.158344
0.447637 0.291937 0.175162
0.490619 0.319969 0.191981
0.533600 0.348000 0.208800
0.576581 0.376031 0.225619
0.619563 0.404063 0.242438
0.662544 0.432094 0.259256
0.403075 0.262875 0.157725
0.446056 0.290906 0.174544
0.489037 0.318937 0.191362
0.532019 0.346969 0.208181
0.575000 0.375000 0.225000
0.617981 0.403031 0.241819
0.660962 0.431063 0.258638
0.703944 0.459094 0.275456
0.746925 0.487125 0.292275
0.487456 0.317906 0.190744
0.530437 0.345937 0.207562
0.573419 0.373969 0.224381
0.616400 0.402000 0.241200
0.659381 0.430031 0.258019
0.702363 0.458063 0.274838
0.745344 0.486094 0.291656
0.788325 0.514125 0.308475
0.831306 0.542156 0.325294
0.571837 0.372937 0.223763
0.614819 0.400969 0.240581
0.657800 0.429000 0.257400
0.700781 0.457031 0.274219
0.743762 0.485063 0.291038
0.786744 0.513094 0.307856
0.829725 0.541125 0.324675
0.872706 0.569156 0.341494
0.915687 0.597187 0.358313
0.656219 0.427969 0.256781
0.699200 0.456000 0.273600
0.742181 0.484031 0.290419
0.785162 0.512063 0.307238
0.828144 0.540094 0.324056
0.871125 0.568125 0.340875
0.914106 0.596156 0.357694
0.957087 0.624188 0.374513
1.000000 0.652219 0.391331
0.740600 0.483000 0.289800
0.783581 0.511031 0.306619
0.826562 0.539063 0.323437
0.869544 0.567094 0.340256
0.912525 0.595125 0.357075
0.955506 0.623156 0.373894
0.998487 0.651188 0.390713
1.000000 0.679219 0.407531
1.000000 0.707250 0.424350
0.081937 0.053438 0.032063
0.124919 0.081469 0.048881
0.167900 0.109500 0.065700
0.210881 0.137531 0.082519
0.253862 0.165563 0.099338
0.296844 0.193594 0.116156
0.339825 0.221625 0.132975
0.382806 0.249656 0.149794
0.425787 0.277687 0.166612
0.166319 0.108469 0.065081
0.209300 0.136500 0.081900
0.252281 0.164531 0.098719
0.295263 0.192563 0.115538
0.338244 0.220594 0.132356
0.381225 0.248625 0.149175
0.424206 0.276656 0.165994
0.467187 0.304688 0.182813
0.510169 0.332719 0.199631
0.250700 0.163500 0.098100
0.293681 0.191531 0.114919
0.336662 0.219562 0.131737
0.379644 0.247594 0.148556
0.422625 0.275625 0.165375
0.465606 0.303656 0.182194
0.508587 0.331688 0.199013
0.551569 0.359719 0.215831
0.594550 0.387750 0.232650
0.335081 0.218531 0.131119
0.378062 0.246562 0.147937
0.421044 0.274594 0.164756
0.464025 0.302625 0.181575
0.507006 0.330656 0.198394
0.549987 0.358687 0.215212
0.592969 0.386719 0.232031
0.635950 0.414750 0.248850
0.678931 0.442781 0.265669
0.419463 0.273563 0.164138
0.462444 0.301594 0.180956
0.505425 0.329625 0.197775
0.548406 0.357656 0.214594
0.591387 0.385687 0.231412
0.634369 0.413719 0.248231
0.677350 0.441750 0.265050
0.720331 0.469781 0.281869
0.763313 0.497813 0.298688
0.503844 0.328594 0.197156
0.546825 0.356625 0.213975
0.589806 0.384656 0.230794
0.632787 0.412687 0.247613
0.675769 0.440719 0.264431
0.718750 0.468750 0.281250
0.761731 0.496781 0.298069
0.804712 0.524813 0.314887
0.847694 0.552844 0.331706
0.588225 0.383625 0.230175
0.631206 0.411656 0.246994
0.674188 0.439688 0.263813
0.717169 0.467719 0.280631
0.760150 0.495750 0.297450
0.803131 0.523781 0.314269
0.846112 0.551813 0.331088
0.889094 0.579844 0.347906
0.932075 0.607875 0.364725
0.672606 0.438656 0.263194
0.715588 0.466688 0.280013
0.758569 0.494719 0.296831
0.801550 0.522750 0.313650
0.844531 0.550781 0.330469
0.887513 0.578813 0.347288
0.930494 0.606844 0.364106
0.973475 0.634875 0.380925
1.000000 0.662906 0.397744
0.756987 0.493688 0.296212
0.799969 0.521719 0.313031
0.842950 0.549750 0.329850
0.885931 0.577781 0.346669
0.928912 0.605812 0.363488
0.971894 0.633844 0.380306
1.000000 0.661875 0.397125
1.000000 0.689906 0.413944
1.000000 0.717937 0.430762
0.098325 0.064125 0.038475
0.141306 0.092156 0.055294
0.184287 0.120188 0.072113
0.227269 0.148219 0.088931
0.270250 0.176250 0.105750
0.313231 0.204281 0.122569
0.356212 0.232313 0.139388
0.399194 0.260344 0.156206
0.442175 0.288375 0.173025
0.182706 0.119156 0.071494
0.225687 0.147187 0.088312
0.268669 0.175219 0.105131
0.311650 0.203250 0.121950
0.354631 0.231281 0.138769
0.397612 0.259313 0.155588
0.440594 0.287344 0.172406
0.483575 0.315375 0.189225
0.526556 0.343406 0.206044
0.267087 0.174187 0.104513
0.310069 0.202219 0.121331
0.353050 0.230250 0.138150
0.396031 0.258281 0.154969
0.439013 0.286313 0.171788
0.481994 0.314344 0.188606
0.524975 0.342375 0.205425
0.567956 0.370406 0.222244
0.610937 0.398438 0.239063
0.351469 0.229219 0.137531
0.394450 0.257250 0.154350
0.437431 0.285281 0.171169
0.480412 0.313312 0.187988
0.523394 0.341344 0.204806
0.566375 0.369375 0.221625
0.609356 0.397406 0.238444
0.652338 0.425438 0.255263
0.695319 0.453469 0.272081
0.435850 0.284250 0.170550
0.478831 0.312281 0.187369
0.521812 0.340313 0.204187
0.564794 0.368344 0.221006
0.607775 0.396375 0.237825
0.650756 0.424406 0.254644
0.693737 0.452437 0.271462
0.736719 0.480469 0.288281
0.779700 0.508500 0.305100
0.520231 0.339281 0.203569
0.563212 0.367312 0.220387
0.606194 0.395344 0.237206
0.649175 0.423375 0.254025
0.692156 0.451406 0.270844
0.735137 0.479437 0.287662
0.778119 0.507469 0.304481
0.821100 0.535500 0.321300
0.864081 0.563531 0.338119
0.604612 0.394312 0.236587
0.647594 0.422344 0.253406
0.690575 0.450375 0.270225
0.733556 0.478406 0.287044
0.776537 0.506437 0.303863
0.819519 0.534469 0.320681
0.862500 0.562500 0.337500
0.905481 0.590531 0.354319
0.948462 0.618563 0.371138
0.688994 0.449344 0.269606
0.731975 0.477375 0.286425
0.774956 0.505406 0.303244
0.817937 0.533438 0.320063
0.860919 0.561469 0.336881
0.903900 0.589500 0.353700
0.946881 0.617531 0.370519
0.989862 0.645563 0.387338
1.000000 0.673594 0.404156
0.773375 0.504375 0.302625
0.816356 0.532406 0.319444
0.859337 0.560437 0.336263
0.902319 0.588469 0.353081
0.945300 0.616500 0.369900
0.988281 0.644531 0.386719
1.000000 0.672563 0.403538
1.000000 0.700594 0.420356
1.000000 0.728625 0.437175
0.114712 0.074813 0.044888
0.157694 0.102844 0.061706
0.200675 0.130875 0.078525
0.243656 0.158906 0.095344
0.286637 0.186938 0.112162
0.329619 0.214969 0.128981
0.372600 0.243000 0.145800
0.415581 0.271031 0.162619
0.458562 0.299063 0.179437
0.199094 0.129844 0.077906
0.242075 0.157875 0.094725
0.285056 0.185906 0.111544
0.328037 0.213938 0.128363
0.371019 0.241969 0.145181
0.414000 0.270000 0.162000
0.456981 0.298031 0.178819
0.499962 0.326062 0.195637
0.542944 0.354094 0.212456
0.283475 0.184875 0.110925
0.326456 0.212906 0.127744
0.369437 0.240937 0.144562
0.412419 0.268969 0.161381
0.455400 0.297000 0.178200
0.498381 0.325031 0.195019
0.541362 0.353063 0.211838
0.584344 0.381094 0.228656
0.627325 0.409125 0.245475
0.367856 0.239906 0.143944
0.410837 0.267937 0.160763
0.453819 0.295969 0.177581
0.496800 0.324000 0.194400
0.539781 0.352031 0.211219
0.582762 0.380063 0.228038
0.625744 0.408094 0.244856
0.668725 0.436125 0.261675
0.711706 0.464156 0.278494
0.452237 0.294937 0.176962
0.495219 0.322969 0.193781
0.538200 0.351000 0.210600
0.581181 0.379031 0.227419
0.624162 0.407062 0.244237
0.667144 0.435094 0.261056
0.710125 0.463125 0.277875
0.753106 0.491156 0.294694
0.796087 0.519188 0.311513
0.536619 0.349969 0.209981
0.579600 0.378000 0.226800
0.622581 0.406031 0.243619
0.665562 0.434063 0.260437
0.708544 0.462094 0.277256
0.751525 0.490125 0.294075
0.794506 0.518156 0.310894
0.837487 0.546187 0.327712
0.880469 0.574219 0.344531
0.621000 0.405000 0.243000
0.663981 0.433031 0.259819
0.706962 0.461063 0.276638
0.749944 0.489094 0.293456
0.792925 0.517125 0.310275
0.835906 0.545156 0.327094
0.878887 0.573187 0.343913
0.921869 0.601219 0.360731
0.964850 0.629250 0.377550
0.705381 0.460031 0.276019
0.748363 0.488063 0.292838
0.791344 0.516094 0.309656
0.834325 0.544125 0.326475
0.877306 0.572156 0.343294
0.920287 0.600187 0.360113
0.963269 0.628219 0.376931
1.000000 0.656250 0.393750
1.000000 0.684281 0.410569
0.789762 0.515062 0.309038
0.832744 0.543094 0.325856
0.875725 0.571125 0.342675
0.918706 0.599156 0.359494
0.961687 0.627188 0.376312
1.000000 0.655219 0.393131
1.000000 0.683250 0.409950
1.000000 0.711281 0.426769
1.000000 0.739312 0.443587
0.131100 0.085500 0.051300
0.174081 0.113531 0.068119
0.217062 0.141563 0.084937
0.260044 0.169594 0.101756
0.303025 0.197625 0.118575
0.346006 0.225656 0.135394
0.388987 0.253688 0.152213
0.431969 0.281719 0.169031
0.474950 0.309750 0.185850
0.215481 0.140531 0.084319
0.258462 0.168563 0.101138
0.301444 0.196594 0.117956
0.344425 0.224625 0.134775
0.387406 0.252656 0.151594
0.430387 0.280687 0.168412
0.473369 0.308719 0.185231
0.516350 0.336750 0.202050
0.559331 0.364781 0.218869
0.299862 0.195562 0.117337
0.342844 0.223594 0.134156
0.385825 0.251625 0.150975
0.428806 0.279656 0.167794
0.471787 0.307688 0.184613
0.514769 0.335719 0.201431
0.557750 0.363750 0.218250
0.600731 0.391781 0.235069
0.643712 0.419812 0.251887
0.384244 0.250594 0.150356
0.427225 0.278625 0.167175
0.470206 0.306656 0.183994
0.513187 0.334687 0.200813
0.556169 0.362719 0.217631
0.599150 0.390750 0.234450
0.642131 0.418781 0.251269
0.685112 0.446813 0.268088
0.728094 0.474844 0.284906
0.468625 0.305625 0.183375
0.511606 0.333656 0.200194
0.554587 0.361687 0.217012
0.597569 0.389719 0.233831
0.640550 0.417750 0.250650
0.683531 0.445781 0.267469
0.726512 0.473812 0.284287
0.769494 0.501844 0.301106
0.812475 0.529875 0.317925
0.553006 0.360656 0.216394
0.595987 0.388687 0.233212
0.638969 0.416719 0.250031
0.681950 0.444750 0.266850
0.724931 0.472781 0.283669
0.767912 0.500812 0.300487
0.810894 0.528844 0.317306
0.853875 0.556875 0.334125
0.896856 0.584906 0.350944
0.637387 0.415687 0.249413
0.680369 0.443719 0.266231
0.723350 0.471750 0.283050
0.766331 0.499781 0.299869
0.809312 0.527813 0.316688
0.852294 0.555844 0.333506
0.895275 0.583875 0.350325
0.938256 0.611906 0.367144
0.981237 0.639937 0.383962
0.721769 0.470719 0.282431
0.764750 0.498750 0.299250
0.807731 0.526781 0.316069
0.850712 0.554813 0.332888
0.893694 0.582844 0.349706
0.936675 0.610875 0.366525
0.979656 0.638906 0.383344
1.000000 0.666937 0.400162
1.000000 0.694969 0.416981
0.806150 0.525750 0.315450
0.849131 0.553781 0.332269
0.892112 0.581812 0.349087
0.935094 0.609844 0.365906
0.978075 0.637875 0.382725
1.000000 0.665906 0.399544
1.000000 0.693937 0.416363
1.000000 0.721969 0.433181
1.000000 0.750000 0.450000
