public/luts/rgb-screen.cube
# Generated from the RGB Screen experiment
# PIL grayscale luminance, then R=1.15L G=0.75L B=0.45L
TITLE "RGB Screen"
LUT_3D_SIZE 5
DOMAIN_MIN 0.0 0.0 0.0
DOMAIN_MAX 1.0 1.0 1.0
0.000000 0.000000 0.000000
0.085962 0.056063 0.033638
0.171925 0.112125 0.067275
0.257887 0.168187 0.100913
0.343850 0.224250 0.134550
0.168762 0.110062 0.066037
0.254725 0.166125 0.099675
0.340687 0.222188 0.133313
0.426650 0.278250 0.166950
0.512612 0.334313 0.200588
0.337525 0.220125 0.132075
0.423487 0.276187 0.165712
0.509450 0.332250 0.199350
0.595412 0.388312 0.232987
0.681375 0.444375 0.266625
0.506287 0.330187 0.198112
0.592250 0.386250 0.231750
0.678212 0.442312 0.265387
0.764175 0.498375 0.299025
0.850137 0.554437 0.332662
0.675050 0.440250 0.264150
0.761012 0.496312 0.297787
0.846975 0.552375 0.331425
0.932937 0.608437 0.365063
1.000000 0.664500 0.398700
0.032775 0.021375 0.012825
0.118737 0.077437 0.046462
0.204700 0.133500 0.080100
0.290662 0.189563 0.113738
0.376625 0.245625 0.147375
0.201537 0.131437 0.078863
0.287500 0.187500 0.112500
0.373463 0.243563 0.146138
0.459425 0.299625 0.179775
0.545387 0.355687 0.213413
0.370300 0.241500 0.144900
0.456262 0.297563 0.178537
0.542225 0.353625 0.212175
0.628187 0.409687 0.245812
0.714150 0.465750 0.279450
0.539063 0.351563 0.210938
0.625025 0.407625 0.244575
0.710987 0.463687 0.278212
0.796950 0.519750 0.311850
0.882912 0.575812 0.345488
0.707825 0.461625 0.276975
0.793787 0.517687 0.310612
0.879750 0.573750 0.344250
0.965712 0.629812 0.377887
1.000000 0.685875 0.411525
0.065550 0.042750 0.025650
0.151512 0.098812 0.059288
0.237475 0.154875 0.092925
0.323437 0.210938 0.126562
0.409400 0.267000 0.160200
0.234312 0.152812 0.091687
0.320275 0.208875 0.125325
0.406237 0.264937 0.158963
0.492200 0.321000 0.192600
0.578163 0.377063 0.226238
0.403075 0.262875 0.157725
0.489037 0.318937 0.191362
0.575000 0.375000 0.225000
0.660962 0.431063 0.258638
0.746925 0.487125 0.292275
0.571837 0.372937 0.223763
0.657800 0.429000 0.257400
0.743762 0.485063 0.291038
0.829725 0.541125 0.324675
0.915687 0.597187 0.358313
0.740600 0.483000 0.289800
0.826562 0.539063 0.323437
0.912525 0.595125 0.357075
0.998487 0.651188 0.390713
1.000000 0.707250 0.424350
0.098325 0.064125 0.038475
0.184287 0.120188 0.072113
0.270250 0.176250 0.105750
0.356212 0.232313 0.139388
0.442175 0.288375 0.173025
0.267087 0.174187 0.104513
0.353050 0.230250 0.138150
0.439013 0.286313 0.171788
0.524975 0.342375 0.205425
0.610937 0.398438 0.239063
0.435850 0.284250 0.170550
0.521812 0.340313 0.204187
0.607775 0.396375 0.237825
0.693737 0.452437 0.271462
0.779700 0.508500 0.305100
0.604612 0.394312 0.236587
0.690575 0.450375 0.270225
0.776537 0.506437 0.303863
0.862500 0.562500 0.337500
0.948462 0.618563 0.371138
0.773375 0.504375 0.302625
0.859337 0.560437 0.336263
0.945300 0.616500 0.369900
1.000000 0.672563 0.403538
1.000000 0.728625 0.437175
0.131100 0.085500 0.051300
0.217062 0.141563 0.084937
0.303025 0.197625 0.118575
0.388987 0.253688 0.152213
0.474950 0.309750 0.185850
0.299862 0.195562 0.117337
0.385825 0.251625 0.150975
0.471787 0.307688 0.184613
0.557750 0.363750 0.218250
0.643712 0.419812 0.251887
0.468625 0.305625 0.183375
0.554587 0.361687 0.217012
0.640550 0.417750 0.250650
0.726512 0.473812 0.284287
0.812475 0.529875 0.317925
0.637387 0.415687 0.249413
0.723350 0.471750 0.283050
0.809312 0.527813 0.316688
0.895275 0.583875 0.350325
0.981237 0.639937 0.383962
0.806150 0.525750 0.315450
0.892112 0.581812 0.349087
0.978075 0.637875 0.382725
1.000000 0.693937 0.416363
1.000000 0.750000 0.450000
