public/luts/rgb-screen.cube
# Generated from the RGB Screen experiment
# PIL grayscale luminance, then R=1.15L G=0.75L B=0.45L
TITLE "RGB Screen"
LUT_3D_SIZE 33
DOMAIN_MIN 0.0 0.0 0.0
DOMAIN_MAX 1.0 1.0 1.0
0.000000 0.000000 0.000000
0.010745 0.007008 0.004205
0.021491 0.014016 0.008409
0.032236 0.021023 0.012614
0.042981 0.028031 0.016819
0.053727 0.035039 0.021023
0.064472 0.042047 0.025228
0.075217 0.049055 0.029433
0.085962 0.056063 0.033638
0.096708 0.063070 0.037842
0.107453 0.070078 0.042047
0.118198 0.077086 0.046252
0.128944 0.084094 0.050456
0.139689 0.091102 0.054661
0.150434 0.098109 0.058866
0.161180 0.105117 0.063070
0.171925 0.112125 0.067275
0.182670 0.119133 0.071480
0.193416 0.126141 0.075684
0.204161 0.133148 0.079889
0.214906 0.140156 0.084094
0.225652 0.147164 0.088298
0.236397 0.154172 0.092503
0.247142 0.161180 0.096708
0.257887 0.168187 0.100913
0.268633 0.175195 0.105117
0.279378 0.182203 0.109322
0.290123 0.189211 0.113527
0.300869 0.196219 0.117731
0.311614 0.203227 0.121936
0.322359 0.210234 0.126141
0.333105 0.217242 0.130345
0.343850 0.224250 0.134550
0.021095 0.013758 0.008255
0.031841 0.020766 0.012459
0.042586 0.027773 0.016664
0.053331 0.034781 0.020869
0.064077 0.041789 0.025073
0.074822 0.048797 0.029278
0.085567 0.055805 0.033483
0.096312 0.062812 0.037687
0.107058 0.069820 0.041892
0.117803 0.076828 0.046097
0.128548 0.083836 0.050302
0.139294 0.090844 0.054506
0.150039 0.097852 0.058711
0.160784 0.104859 0.062916
0.171530 0.111867 0.067120
0.182275 0.118875 0.071325
0.193020 0.125883 0.075530
0.203766 0.132891 0.079734
0.214511 0.139898 0.083939
0.225256 0.146906 0.088144
0.236002 0.153914 0.092348
0.246747 0.160922 0.096553
0.257492 0.167930 0.100758
0.268237 0.174937 0.104963
0.278983 0.181945 0.109167
0.289728 0.188953 0.113372
0.300473 0.195961 0.117577
0.311219 0.202969 0.121781
0.321964 0.209977 0.125986
0.332709 0.216984 0.130191
0.343455 0.223992 0.134395
0.354200 0.231000 0.138600
0.364945 0.238008 0.142805
0.042191 0.027516 0.016509
0.052936 0.034523 0.020714
0.063681 0.041531 0.024919
0.074427 0.048539 0.029123
0.085172 0.055547 0.033328
0.095917 0.062555 0.037533
0.106662 0.069562 0.041738
0.117408 0.076570 0.045942
0.128153 0.083578 0.050147
0.138898 0.090586 0.054352
0.149644 0.097594 0.058556
0.160389 0.104602 0.062761
0.171134 0.111609 0.066966
0.181880 0.118617 0.071170
0.192625 0.125625 0.075375
0.203370 0.132633 0.079580
0.214116 0.139641 0.083784
0.224861 0.146648 0.087989
0.235606 0.153656 0.092194
0.246352 0.160664 0.096398
0.257097 0.167672 0.100603
0.267842 0.174680 0.104808
0.278587 0.181687 0.109012
0.289333 0.188695 0.113217
0.300078 0.195703 0.117422
0.310823 0.202711 0.121627
0.321569 0.209719 0.125831
0.332314 0.216727 0.130036
0.343059 0.223734 0.134241
0.353805 0.230742 0.138445
0.364550 0.237750 0.142650
0.375295 0.244758 0.146855
0.386041 0.251766 0.151059
0.063286 0.041273 0.024764
0.074031 0.048281 0.028969
0.084777 0.055289 0.033173
0.095522 0.062297 0.037378
0.106267 0.069305 0.041583
0.117012 0.076312 0.045787
0.127758 0.083320 0.049992
0.138503 0.090328 0.054197
0.149248 0.097336 0.058402
0.159994 0.104344 0.062606
0.170739 0.111352 0.066811
0.181484 0.118359 0.071016
0.192230 0.125367 0.075220
0.202975 0.132375 0.079425
0.213720 0.139383 0.083630
0.224466 0.146391 0.087834
0.235211 0.153398 0.092039
0.245956 0.160406 0.096244
0.256702 0.167414 0.100448
0.267447 0.174422 0.104653
0.278192 0.181430 0.108858
0.288937 0.188437 0.113062
0.299683 0.195445 0.117267
0.310428 0.202453 0.121472
0.321173 0.209461 0.125677
0.331919 0.216469 0.129881
0.342664 0.223477 0.134086
0.353409 0.230484 0.138291
0.364155 0.237492 0.142495
0.374900 0.244500 0.146700
0.385645 0.251508 0.150905
0.396391 0.258516 0.155109
0.407136 0.265523 0.159314
0.084381 0.055031 0.033019
0.095127 0.062039 0.037223
0.105872 0.069047 0.041428
0.116617 0.076055 0.045633
0.127362 0.083062 0.049837
0.138108 0.090070 0.054042
0.148853 0.097078 0.058247
0.159598 0.104086 0.062452
0.170344 0.111094 0.066656
0.181089 0.118102 0.070861
0.191834 0.125109 0.075066
0.202580 0.132117 0.079270
0.213325 0.139125 0.083475
0.224070 0.146133 0.087680
0.234816 0.153141 0.091884
0.245561 0.160148 0.096089
0.256306 0.167156 0.100294
0.267052 0.174164 0.104498
0.277797 0.181172 0.108703
0.288542 0.188180 0.112908
0.299287 0.195187 0.117112
0.310033 0.202195 0.121317
0.320778 0.209203 0.125522
0.331523 0.216211 0.129727
0.342269 0.223219 0.133931
0.353014 0.230227 0.138136
0.363759 0.237234 0.142341
0.374505 0.244242 0.146545
0.385250 0.251250 0.150750
0.395995 0.258258 0.154955
0.406741 0.265266 0.159159
0.417486 0.272273 0.163364
0.428231 0.279281 0.167569
0.105477 0.068789 0.041273
0.116222 0.075797 0.045478
0.126967 0.082805 0.049683
0.137712 0.089812 0.053887
0.148458 0.096820 0.058092
0.159203 0.103828 0.062297
0.169948 0.110836 0.066502
0.180694 0.117844 0.070706
0.191439 0.124852 0.074911
0.202184 0.131859 0.079116
0.212930 0.138867 0.083320
0.223675 0.145875 0.087525
0.234420 0.152883 0.091730
0.245166 0.159891 0.095934
0.255911 0.166898 0.100139
0.266656 0.173906 0.104344
0.277402 0.180914 0.108548
0.288147 0.187922 0.112753
0.298892 0.194930 0.116958
0.309637 0.201937 0.121162
0.320383 0.208945 0.125367
0.331128 0.215953 0.129572
0.341873 0.222961 0.133777
0.352619 0.229969 0.137981
0.363364 0.236977 0.142186
0.374109 0.243984 0.146391
0.384855 0.250992 0.150595
0.395600 0.258000 0.154800
0.406345 0.265008 0.159005
0.417091 0.272016 0.163209
0.427836 0.279023 0.167414
0.438581 0.286031 0.171619
0.449327 0.293039 0.175823
0.126572 0.082547 0.049528
0.137317 0.089555 0.053733
0.148062 0.096562 0.057938
0.158808 0.103570 0.062142
0.169553 0.110578 0.066347
0.180298 0.117586 0.070552
0.191044 0.124594 0.074756
0.201789 0.131602 0.078961
0.212534 0.138609 0.083166
0.223280 0.145617 0.087370
0.234025 0.152625 0.091575
0.244770 0.159633 0.095780
0.255516 0.166641 0.099984
0.266261 0.173648 0.104189
0.277006 0.180656 0.108394
0.287752 0.187664 0.112598
0.298497 0.194672 0.116803
0.309242 0.201680 0.121008
0.319987 0.208687 0.125213
0.330733 0.215695 0.129417
0.341478 0.222703 0.133622
0.352223 0.229711 0.137827
0.362969 0.236719 0.142031
0.373714 0.243727 0.146236
0.384459 0.250734 0.150441
0.395205 0.257742 0.154645
0.405950 0.264750 0.158850
0.416695 0.271758 0.163055
0.427441 0.278766 0.167259
0.438186 0.285773 0.171464
0.448931 0.292781 0.175669
0.459677 0.299789 0.179873
0.470422 0.306797 0.184078
0.147667 0.096305 0.057783
0.158413 0.103313 0.061988
0.169158 0.110320 0.066192
0.179903 0.117328 0.070397
0.190648 0.124336 0.074602
0.201394 0.131344 0.078806
0.212139 0.138352 0.083011
0.222884 0.145359 0.087216
0.233630 0.152367 0.091420
0.244375 0.159375 0.095625
0.255120 0.166383 0.099830
0.265866 0.173391 0.104034
0.276611 0.180398 0.108239
0.287356 0.187406 0.112444
0.298102 0.194414 0.116648
0.308847 0.201422 0.120853
0.319592 0.208430 0.125058
0.330338 0.215438 0.129263
0.341083 0.222445 0.133467
0.351828 0.229453 0.137672
0.362573 0.236461 0.141877
0.373319 0.243469 0.146081
0.384064 0.250477 0.150286
0.394809 0.257484 0.154491
0.405555 0.264492 0.158695
0.416300 0.271500 0.162900
0.427045 0.278508 0.167105
0.437791 0.285516 0.171309
0.448536 0.292523 0.175514
0.459281 0.299531 0.179719
0.470027 0.306539 0.183923
0.480772 0.313547 0.188128
0.491517 0.320555 0.192333
0.168762 0.110062 0.066037
0.179508 0.117070 0.070242
0.190253 0.124078 0.074447
0.200998 0.131086 0.078652
0.211744 0.138094 0.082856
0.222489 0.145102 0.087061
0.233234 0.152109 0.091266
0.243980 0.159117 0.095470
0.254725 0.166125 0.099675
0.265470 0.173133 0.103880
0.276216 0.180141 0.108084
0.286961 0.187148 0.112289
0.297706 0.194156 0.116494
0.308452 0.201164 0.120698
0.319197 0.208172 0.124903
0.329942 0.215180 0.129108
0.340687 0.222188 0.133313
0.351433 0.229195 0.137517
0.362178 0.236203 0.141722
0.372923 0.243211 0.145927
0.383669 0.250219 0.150131
0.394414 0.257227 0.154336
0.405159 0.264234 0.158541
0.415905 0.271242 0.162745
0.426650 0.278250 0.166950
0.437395 0.285258 0.171155
0.448141 0.292266 0.175359
0.458886 0.299273 0.179564
0.469631 0.306281 0.183769
0.480377 0.313289 0.187973
0.491122 0.320297 0.192178
0.501867 0.327305 0.196383
0.512612 0.334313 0.200588
0.189858 0.123820 0.074292
0.200603 0.130828 0.078497
0.211348 0.137836 0.082702
0.222094 0.144844 0.086906
0.232839 0.151852 0.091111
0.243584 0.158859 0.095316
0.254330 0.165867 0.099520
0.265075 0.172875 0.103725
0.275820 0.179883 0.107930
0.286566 0.186891 0.112134
0.297311 0.193898 0.116339
0.308056 0.200906 0.120544
0.318802 0.207914 0.124748
0.329547 0.214922 0.128953
0.340292 0.221930 0.133158
0.351037 0.228937 0.137362
0.361783 0.235945 0.141567
0.372528 0.242953 0.145772
0.383273 0.249961 0.149977
0.394019 0.256969 0.154181
0.404764 0.263977 0.158386
0.415509 0.270984 0.162591
0.426255 0.277992 0.166795
0.437000 0.285000 0.171000
0.447745 0.292008 0.175205
0.458491 0.299016 0.179409
0.469236 0.306023 0.183614
0.479981 0.313031 0.187819
0.490727 0.320039 0.192023
0.501472 0.327047 0.196228
0.512217 0.334055 0.200433
0.522962 0.341062 0.204637
0.533708 0.348070 0.208842
0.210953 0.137578 0.082547
0.221698 0.144586 0.086752
0.232444 0.151594 0.090956
0.243189 0.158602 0.095161
0.253934 0.165609 0.099366
0.264680 0.172617 0.103570
0.275425 0.179625 0.107775
0.286170 0.186633 0.111980
0.296916 0.193641 0.116184
0.307661 0.200648 0.120389
0.318406 0.207656 0.124594
0.329152 0.214664 0.128798
0.339897 0.221672 0.133003
0.350642 0.228680 0.137208
0.361387 0.235687 0.141412
0.372133 0.242695 0.145617
0.382878 0.249703 0.149822
0.393623 0.256711 0.154027
0.404369 0.263719 0.158231
0.415114 0.270727 0.162436
0.425859 0.277734 0.166641
0.436605 0.284742 0.170845
0.447350 0.291750 0.175050
0.458095 0.298758 0.179255
0.468841 0.305766 0.183459
0.479586 0.312773 0.187664
0.490331 0.319781 0.191869
0.501077 0.326789 0.196073
0.511822 0.333797 0.200278
0.522567 0.340805 0.204483
0.533312 0.347812 0.208687
0.544058 0.354820 0.212892
0.554803 0.361828 0.217097
0.232048 0.151336 0.090802
0.242794 0.158344 0.095006
0.253539 0.165352 0.099211
0.264284 0.172359 0.103416
0.275030 0.179367 0.107620
0.285775 0.186375 0.111825
0.296520 0.193383 0.116030
0.307266 0.200391 0.120234
0.318011 0.207398 0.124439
0.328756 0.214406 0.128644
0.339502 0.221414 0.132848
0.350247 0.228422 0.137053
0.360992 0.235430 0.141258
0.371737 0.242437 0.145462
0.382483 0.249445 0.149667
0.393228 0.256453 0.153872
0.403973 0.263461 0.158077
0.414719 0.270469 0.162281
0.425464 0.277477 0.166486
0.436209 0.284484 0.170691
0.446955 0.291492 0.174895
0.457700 0.298500 0.179100
0.468445 0.305508 0.183305
0.479191 0.312516 0.187509
0.489936 0.319523 0.191714
0.500681 0.326531 0.195919
0.511427 0.333539 0.200123
0.522172 0.340547 0.204328
0.532917 0.347555 0.208533
0.543662 0.354563 0.212737
0.554408 0.361570 0.216942
0.565153 0.368578 0.221147
0.575898 0.375586 0.225352
0.253144 0.165094 0.099056
0.263889 0.172102 0.103261
0.274634 0.179109 0.107466
0.285380 0.186117 0.111670
0.296125 0.193125 0.115875
0.306870 0.200133 0.120080
0.317616 0.207141 0.124284
0.328361 0.214148 0.128489
0.339106 0.221156 0.132694
0.349852 0.228164 0.136898
0.360597 0.235172 0.141103
0.371342 0.242180 0.145308
0.382087 0.249188 0.149512
0.392833 0.256195 0.153717
0.403578 0.263203 0.157922
0.414323 0.270211 0.162127
0.425069 0.277219 0.166331
0.435814 0.284227 0.170536
0.446559 0.291234 0.174741
0.457305 0.298242 0.178945
0.468050 0.305250 0.183150
0.478795 0.312258 0.187355
0.489541 0.319266 0.191559
0.500286 0.326273 0.195764
0.511031 0.333281 0.199969
0.521777 0.340289 0.204173
0.532522 0.347297 0.208378
0.543267 0.354305 0.212583
0.554013 0.361313 0.216788
0.564758 0.368320 0.220992
0.575503 0.375328 0.225197
0.586248 0.382336 0.229402
0.596994 0.389344 0.233606
0.274239 0.178852 0.107311
0.284984 0.185859 0.111516
0.295730 0.192867 0.115720
0.306475 0.199875 0.119925
0.317220 0.206883 0.124130
0.327966 0.213891 0.128334
0.338711 0.220898 0.132539
0.349456 0.227906 0.136744
0.360202 0.234914 0.140948
0.370947 0.241922 0.145153
0.381692 0.248930 0.149358
0.392437 0.255937 0.153562
0.403183 0.262945 0.157767
0.413928 0.269953 0.161972
0.424673 0.276961 0.166177
0.435419 0.283969 0.170381
0.446164 0.290977 0.174586
0.456909 0.297984 0.178791
0.467655 0.304992 0.182995
0.478400 0.312000 0.187200
0.489145 0.319008 0.191405
0.499891 0.326016 0.195609
0.510636 0.333023 0.199814
0.521381 0.340031 0.204019
0.532127 0.347039 0.208223
0.542872 0.354047 0.212428
0.553617 0.361055 0.216633
0.564362 0.368063 0.220838
0.575108 0.375070 0.225042
0.585853 0.382078 0.229247
0.596598 0.389086 0.233452
0.607344 0.396094 0.237656
0.618089 0.403102 0.241861
0.295334 0.192609 0.115566
0.306080 0.199617 0.119770
0.316825 0.206625 0.123975
0.327570 0.213633 0.128180
0.338316 0.220641 0.132384
0.349061 0.227648 0.136589
0.359806 0.234656 0.140794
0.370552 0.241664 0.144998
0.381297 0.248672 0.149203
0.392042 0.255680 0.153408
0.402787 0.262688 0.157613
0.413533 0.269695 0.161817
0.424278 0.276703 0.166022
0.435023 0.283711 0.170227
0.445769 0.290719 0.174431
0.456514 0.297727 0.178636
0.467259 0.304734 0.182841
0.478005 0.311742 0.187045
0.488750 0.318750 0.191250
0.499495 0.325758 0.195455
0.510241 0.332766 0.199659
0.520986 0.339773 0.203864
0.531731 0.346781 0.208069
0.542477 0.353789 0.212273
0.553222 0.360797 0.216478
0.563967 0.367805 0.220683
0.574712 0.374812 0.224888
0.585458 0.381820 0.229092
0.596203 0.388828 0.233297
0.606948 0.395836 0.237502
0.617694 0.402844 0.241706
0.628439 0.409852 0.245911
0.639184 0.416859 0.250116
0.316430 0.206367 0.123820
0.327175 0.213375 0.128025
0.337920 0.220383 0.132230
0.348666 0.227391 0.136434
0.359411 0.234398 0.140639
0.370156 0.241406 0.144844
0.380902 0.248414 0.149048
0.391647 0.255422 0.153253
0.402392 0.262430 0.157458
0.413137 0.269437 0.161662
0.423883 0.276445 0.165867
0.434628 0.283453 0.170072
0.445373 0.290461 0.174277
0.456119 0.297469 0.178481
0.466864 0.304477 0.182686
0.477609 0.311484 0.186891
0.488355 0.318492 0.191095
0.499100 0.325500 0.195300
0.509845 0.332508 0.199505
0.520591 0.339516 0.203709
0.531336 0.346523 0.207914
0.542081 0.353531 0.212119
0.552827 0.360539 0.216323
0.563572 0.367547 0.220528
0.574317 0.374555 0.224733
0.585063 0.381563 0.228938
0.595808 0.388570 0.233142
0.606553 0.395578 0.237347
0.617298 0.402586 0.241552
0.628044 0.409594 0.245756
0.638789 0.416602 0.249961
0.649534 0.423609 0.254166
0.660280 0.430617 0.258370
0.337525 0.220125 0.132075
0.348270 0.227133 0.136280
0.359016 0.234141 0.140484
0.369761 0.241148 0.144689
0.380506 0.248156 0.148894
0.391252 0.255164 0.153098
0.401997 0.262172 0.157303
0.412742 0.269180 0.161508
0.423487 0.276187 0.165712
0.434233 0.283195 0.169917
0.444978 0.290203 0.174122
0.455723 0.297211 0.178327
0.466469 0.304219 0.182531
0.477214 0.311227 0.186736
0.487959 0.318234 0.190941
0.498705 0.325242 0.195145
0.509450 0.332250 0.199350
0.520195 0.339258 0.203555
0.530941 0.346266 0.207759
0.541686 0.353273 0.211964
0.552431 0.360281 0.216169
0.563177 0.367289 0.220373
0.573922 0.374297 0.224578
0.584667 0.381305 0.228783
0.595412 0.388312 0.232987
0.606158 0.395320 0.237192
0.616903 0.402328 0.241397
0.627648 0.409336 0.245602
0.638394 0.416344 0.249806
0.649139 0.423352 0.254011
0.659884 0.430359 0.258216
0.670630 0.437367 0.262420
0.681375 0.444375 0.266625
0.358620 0.233883 0.140330
0.369366 0.240891 0.144534
0.380111 0.247898 0.148739
0.390856 0.254906 0.152944
0.401602 0.261914 0.157148
0.412347 0.268922 0.161353
0.423092 0.275930 0.165558
0.433837 0.282937 0.169762
0.444583 0.289945 0.173967
0.455328 0.296953 0.178172
0.466073 0.303961 0.182377
0.476819 0.310969 0.186581
0.487564 0.317977 0.190786
0.498309 0.324984 0.194991
0.509055 0.331992 0.199195
0.519800 0.339000 0.203400
0.530545 0.346008 0.207605
0.541291 0.353016 0.211809
0.552036 0.360023 0.216014
0.562781 0.367031 0.220219
0.573527 0.374039 0.224423
0.584272 0.381047 0.228628
0.595017 0.388055 0.232833
0.605762 0.395062 0.237037
0.616508 0.402070 0.241242
0.627253 0.409078 0.245447
0.637998 0.416086 0.249652
0.648744 0.423094 0.253856
0.659489 0.430102 0.258061
0.670234 0.437109 0.262266
0.680980 0.444117 0.266470
0.691725 0.451125 0.270675
0.702470 0.458133 0.274880
0.379716 0.247641 0.148584
0.390461 0.254648 0.152789
0.401206 0.261656 0.156994
0.411952 0.268664 0.161198
0.422697 0.275672 0.165403
0.433442 0.282680 0.169608
0.444187 0.289687 0.173813
0.454933 0.296695 0.178017
0.465678 0.303703 0.182222
0.476423 0.310711 0.186427
0.487169 0.317719 0.190631
0.497914 0.324727 0.194836
0.508659 0.331734 0.199041
0.519405 0.338742 0.203245
0.530150 0.345750 0.207450
0.540895 0.352758 0.211655
0.551641 0.359766 0.215859
0.562386 0.366773 0.220064
0.573131 0.373781 0.224269
0.583877 0.380789 0.228473
0.594622 0.387797 0.232678
0.605367 0.394805 0.236883
0.616112 0.401812 0.241087
0.626858 0.408820 0.245292
0.637603 0.415828 0.249497
0.648348 0.422836 0.253702
0.659094 0.429844 0.257906
0.669839 0.436852 0.262111
0.680584 0.443859 0.266316
0.691330 0.450867 0.270520
0.702075 0.457875 0.274725
0.712820 0.464883 0.278930
0.723566 0.471891 0.283134
0.400811 0.261398 0.156839
0.411556 0.268406 0.161044
0.422302 0.275414 0.165248
0.433047 0.282422 0.169453
0.443792 0.289430 0.173658
0.454537 0.296437 0.177862
0.465283 0.303445 0.182067
0.476028 0.310453 0.186272
0.486773 0.317461 0.190477
0.497519 0.324469 0.194681
0.508264 0.331477 0.198886
0.519009 0.338484 0.203091
0.529755 0.345492 0.207295
0.540500 0.352500 0.211500
0.551245 0.359508 0.215705
0.561991 0.366516 0.219909
0.572736 0.373523 0.224114
0.583481 0.380531 0.228319
0.594227 0.387539 0.232523
0.604972 0.394547 0.236728
0.615717 0.401555 0.240933
0.626462 0.408562 0.245137
0.637208 0.415570 0.249342
0.647953 0.422578 0.253547
0.658698 0.429586 0.257752
0.669444 0.436594 0.261956
0.680189 0.443602 0.266161
0.690934 0.450609 0.270366
0.701680 0.457617 0.274570
0.712425 0.464625 0.278775
0.723170 0.471633 0.282980
0.733916 0.478641 0.287184
0.744661 0.485648 0.291389
0.421906 0.275156 0.165094
0.432652 0.282164 0.169298
0.443397 0.289172 0.173503
0.454142 0.296180 0.177708
0.464887 0.303187 0.181912
0.475633 0.310195 0.186117
0.486378 0.317203 0.190322
0.497123 0.324211 0.194527
0.507869 0.331219 0.198731
0.518614 0.338227 0.202936
0.529359 0.345234 0.207141
0.540105 0.352242 0.211345
0.550850 0.359250 0.215550
0.561595 0.366258 0.219755
0.572341 0.373266 0.223959
0.583086 0.380273 0.228164
0.593831 0.387281 0.232369
0.604577 0.394289 0.236573
0.615322 0.401297 0.240778
0.626067 0.408305 0.244983
0.636812 0.415312 0.249187
0.647558 0.422320 0.253392
0.658303 0.429328 0.257597
0.669048 0.436336 0.261802
0.679794 0.443344 0.266006
0.690539 0.450352 0.270211
0.701284 0.457359 0.274416
0.712030 0.464367 0.278620
0.722775 0.471375 0.282825
0.733520 0.478383 0.287030
0.744266 0.485391 0.291234
0.755011 0.492398 0.295439
0.765756 0.499406 0.299644
0.443002 0.288914 0.173348
0.453747 0.295922 0.177553
0.464492 0.302930 0.181758
0.475237 0.309937 0.185963
0.485983 0.316945 0.190167
0.496728 0.323953 0.194372
0.507473 0.330961 0.198577
0.518219 0.337969 0.202781
0.528964 0.344977 0.206986
0.539709 0.351984 0.211191
0.550455 0.358992 0.215395
0.561200 0.366000 0.219600
0.571945 0.373008 0.223805
0.582691 0.380016 0.228009
0.593436 0.387023 0.232214
0.604181 0.394031 0.236419
0.614927 0.401039 0.240623
0.625672 0.408047 0.244828
0.636417 0.415055 0.249033
0.647162 0.422063 0.253238
0.657908 0.429070 0.257442
0.668653 0.436078 0.261647
0.679398 0.443086 0.265852
0.690144 0.450094 0.270056
0.700889 0.457102 0.274261
0.711634 0.464109 0.278466
0.722380 0.471117 0.282670
0.733125 0.478125 0.286875
0.743870 0.485133 0.291080
0.754616 0.492141 0.295284
0.765361 0.499148 0.299489
0.776106 0.506156 0.303694
0.786852 0.513164 0.307898
0.464097 0.302672 0.181603
0.474842 0.309680 0.185808
0.485588 0.316688 0.190013
0.496333 0.323695 0.194217
0.507078 0.330703 0.198422
0.517823 0.337711 0.202627
0.528569 0.344719 0.206831
0.539314 0.351727 0.211036
0.550059 0.358734 0.215241
0.560805 0.365742 0.219445
0.571550 0.372750 0.223650
0.582295 0.379758 0.227855
0.593041 0.386766 0.232059
0.603786 0.393773 0.236264
0.614531 0.400781 0.240469
0.625277 0.407789 0.244673
0.636022 0.414797 0.248878
0.646767 0.421805 0.253083
0.657512 0.428812 0.257288
0.668258 0.435820 0.261492
0.679003 0.442828 0.265697
0.689748 0.449836 0.269902
0.700494 0.456844 0.274106
0.711239 0.463852 0.278311
0.721984 0.470859 0.282516
0.732730 0.477867 0.286720
0.743475 0.484875 0.290925
0.754220 0.491883 0.295130
0.764966 0.498891 0.299334
0.775711 0.505898 0.303539
0.786456 0.512906 0.307744
0.797202 0.519914 0.311948
0.807947 0.526922 0.316153
0.485192 0.316430 0.189858
0.495937 0.323437 0.194062
0.506683 0.330445 0.198267
0.517428 0.337453 0.202472
0.528173 0.344461 0.206677
0.538919 0.351469 0.210881
0.549664 0.358477 0.215086
0.560409 0.365484 0.219291
0.571155 0.372492 0.223495
0.581900 0.379500 0.227700
0.592645 0.386508 0.231905
0.603391 0.393516 0.236109
0.614136 0.400523 0.240314
0.624881 0.407531 0.244519
0.635627 0.414539 0.248723
0.646372 0.421547 0.252928
0.657117 0.428555 0.257133
0.667862 0.435562 0.261338
0.678608 0.442570 0.265542
0.689353 0.449578 0.269747
0.700098 0.456586 0.273952
0.710844 0.463594 0.278156
0.721589 0.470602 0.282361
0.732334 0.477609 0.286566
0.743080 0.484617 0.290770
0.753825 0.491625 0.294975
0.764570 0.498633 0.299180
0.775316 0.505641 0.303384
0.786061 0.512648 0.307589
0.796806 0.519656 0.311794
0.807552 0.526664 0.315998
0.818297 0.533672 0.320203
0.829042 0.540680 0.324408
0.506287 0.330187 0.198112
0.517033 0.337195 0.202317
0.527778 0.344203 0.206522
0.538523 0.351211 0.210727
0.549269 0.358219 0.214931
0.560014 0.365227 0.219136
0.570759 0.372234 0.223341
0.581505 0.379242 0.227545
0.592250 0.386250 0.231750
0.602995 0.393258 0.235955
0.613741 0.400266 0.240159
0.624486 0.407273 0.244364
0.635231 0.414281 0.248569
0.645977 0.421289 0.252773
0.656722 0.428297 0.256978
0.667467 0.435305 0.261183
0.678212 0.442312 0.265387
0.688958 0.449320 0.269592
0.699703 0.456328 0.273797
0.710448 0.463336 0.278002
0.721194 0.470344 0.282206
0.731939 0.477352 0.286411
0.742684 0.484359 0.290616
0.753430 0.491367 0.294820
0.764175 0.498375 0.299025
0.774920 0.505383 0.303230
0.785666 0.512391 0.307434
0.796411 0.519398 0.311639
0.807156 0.526406 0.315844
0.817902 0.533414 0.320048
0.828647 0.540422 0.324253
0.839392 0.547430 0.328458
0.850137 0.554437 0.332662
0.527383 0.343945 0.206367
0.538128 0.350953 0.210572
0.548873 0.357961 0.214777
0.559619 0.364969 0.218981
0.570364 0.371977 0.223186
0.581109 0.378984 0.227391
0.591855 0.385992 0.231595
0.602600 0.393000 0.235800
0.613345 0.400008 0.240005
0.624091 0.407016 0.244209
0.634836 0.414023 0.248414
0.645581 0.421031 0.252619
0.656327 0.428039 0.256823
0.667072 0.435047 0.261028
0.677817 0.442055 0.265233
0.688562 0.449062 0.269437
0.699308 0.456070 0.273642
0.710053 0.463078 0.277847
0.720798 0.470086 0.282052
0.731544 0.477094 0.286256
0.742289 0.484102 0.290461
0.753034 0.491109 0.294666
0.763780 0.498117 0.298870
0.774525 0.505125 0.303075
0.785270 0.512133 0.307280
0.796016 0.519141 0.311484
0.806761 0.526148 0.315689
0.817506 0.533156 0.319894
0.828252 0.540164 0.324098
0.838997 0.547172 0.328303
0.849742 0.554180 0.332508
0.860487 0.561187 0.336712
0.871233 0.568195 0.340917
0.548478 0.357703 0.214622
0.559223 0.364711 0.218827
0.569969 0.371719 0.223031
0.580714 0.378727 0.227236
0.591459 0.385734 0.231441
0.602205 0.392742 0.235645
0.612950 0.399750 0.239850
0.623695 0.406758 0.244055
0.634441 0.413766 0.248259
0.645186 0.420773 0.252464
0.655931 0.427781 0.256669
0.666677 0.434789 0.260873
0.677422 0.441797 0.265078
0.688167 0.448805 0.269283
0.698912 0.455813 0.273487
0.709658 0.462820 0.277692
0.720403 0.469828 0.281897
0.731148 0.476836 0.286102
0.741894 0.483844 0.290306
0.752639 0.490852 0.294511
0.763384 0.497859 0.298716
0.774130 0.504867 0.302920
0.784875 0.511875 0.307125
0.795620 0.518883 0.311330
